BrainLinks-BrainTools-Neurobots/neurobots_demonstrator/demo/neurobots_scene_perception/neurobots_calibration/config/calibration_path_iiwa.txt
iiwa_1_joint=-0.011739267358738939 iiwa_2_joint=0.60577756636354173 iiwa_3_joint=-0.05683596547517788 iiwa_4_joint=-1.7981666722720804 iiwa_5_joint=0.03604011159615983 iiwa_6_joint=-0.7640908098427898 iiwa_7_joint=1.5625144466750978
iiwa_1_joint=-0.11739267358738939 iiwa_2_joint=0.60577756636354173 iiwa_3_joint=-0.05683596547517788 iiwa_4_joint=-1.7981666722720804 iiwa_5_joint=0.03604011159615983 iiwa_6_joint=-0.7640908098427898 iiwa_7_joint=1.5625144466750978
iiwa_1_joint=-0.11739267358738939 iiwa_2_joint=0.60577756636354173 iiwa_3_joint=-0.05683596547517788 iiwa_4_joint=-1.7981666722720804 iiwa_5_joint=0.03604011159615983 iiwa_6_joint=-0.7640908098427898 iiwa_7_joint=1.325144466750978
iiwa_1_joint=-0.11739267358738939 iiwa_2_joint=0.65577756636354173 iiwa_3_joint=-0.2683596547517788 iiwa_4_joint=-1.7981666722720804 iiwa_5_joint=0.03604011159615983 iiwa_6_joint=-0.7640908098427898 iiwa_7_joint=1.725144466750978
iiwa_1_joint=-0.11739267358738939 iiwa_2_joint=0.75577756636354173 iiwa_3_joint=-0.2683596547517788 iiwa_4_joint=-1.7981666722720804 iiwa_5_joint=-0.1004011159615983 iiwa_6_joint=-0.940908098427898 iiwa_7_joint=1.725144466750978
iiwa_1_joint=-0.11739267358738939 iiwa_2_joint=0.80577756636354173 iiwa_3_joint=-0.1583596547517788 iiwa_4_joint=-1.581666722720804 iiwa_5_joint=-0.1004011159615983 iiwa_6_joint=-0.940908098427898 iiwa_7_joint=1.675144466750978
iiwa_1_joint=-0.11739267358738939 iiwa_2_joint=0.80577756636354173 iiwa_3_joint=-0.2083596547517788 iiwa_4_joint=-1.581666722720804 iiwa_5_joint=-0.1404011159615983 iiwa_6_joint=-0.940908098427898 iiwa_7_joint=1.795144466750978
iiwa_1_joint=-0.09739267358738939 iiwa_2_joint=0.75577756636354173 iiwa_3_joint=-0.2083596547517788 iiwa_4_joint=-1.581666722720804 iiwa_5_joint=-0.1404011159615983 iiwa_6_joint=-0.880908098427898 iiwa_7_joint=1.795144466750978
iiwa_1_joint=-0.08739267358738939 iiwa_2_joint=0.77577756636354173 iiwa_3_joint=-0.2083596547517788 iiwa_4_joint=-1.581666722720804 iiwa_5_joint=-0.0704011159615983 iiwa_6_joint=-0.740908098427898 iiwa_7_joint=1.795144466750978
iiwa_1_joint=0.2739267358738939 iiwa_2_joint=0.77577756636354173 iiwa_3_joint=-0.2083596547517788 iiwa_4_joint=-1.581666722720804 iiwa_5_joint=-0.0704011159615983 iiwa_6_joint=-0.740908098427898 iiwa_7_joint=1.795144466750978
iiwa_1_joint=0.439267358738939 iiwa_2_joint=0.90577756636354173 iiwa_3_joint=-0.2083596547517788 iiwa_4_joint=-1.581666722720804 iiwa_5_joint=-0.0704011159615983 iiwa_6_joint=-0.740908098427898 iiwa_7_joint=1.565144466750978
iiwa_1_joint=0.439267358738939 iiwa_2_joint=0.90577756636354173 iiwa_3_joint=-0.383596547517788 iiwa_4_joint=-1.581666722720804 iiwa_5_joint=-0.0704011159615983 iiwa_6_joint=-0.740908098427898 iiwa_7_joint=1.565144466750978
iiwa_1_joint=0.439267358738939 iiwa_2_joint=0.90577756636354173 iiwa_3_joint=-0.253596547517788 iiwa_4_joint=-1.581666722720804 iiwa_5_joint=-0.0704011159615983 iiwa_6_joint=-0.720908098427898 iiwa_7_joint=1.465144466750978
iiwa_1_joint=0.459267358738939 iiwa_2_joint=0.85577756636354173 iiwa_3_joint=-0.233596547517788 iiwa_4_joint=-1.671666722720804 iiwa_5_joint=-0.0704011159615983 iiwa_6_joint=-0.720908098427898 iiwa_7_joint=1.465144466750978
iiwa_1_joint=0.559267358738939 iiwa_2_joint=0.85577756636354173 iiwa_3_joint=-0.273596547517788 iiwa_4_joint=-1.671666722720804 iiwa_5_joint=-0.0404011159615983 iiwa_6_joint=-0.720908098427898 iiwa_7_joint=1.465144466750978
iiwa_1_joint=0.559267358738939 iiwa_2_joint=0.85577756636354173 iiwa_3_joint=-0.273596547517788 iiwa_4_joint=-1.671666722720804 iiwa_5_joint=0.124011159615983 iiwa_6_joint=-0.720908098427898 iiwa_7_joint=1.465144466750978
iiwa_1_joint=0.759267358738939 iiwa_2_joint=0.85577756636354173 iiwa_3_joint=-0.273596547517788 iiwa_4_joint=-1.671666722720804 iiwa_5_joint=0.304011159615983 iiwa_6_joint=-0.720908098427898 iiwa_7_joint=1.235144466750978
iiwa_1_joint=0.959267358738939 iiwa_2_joint=0.85577756636354173 iiwa_3_joint=-0.273596547517788 iiwa_4_joint=-1.671666722720804 iiwa_5_joint=0.704011159615983 iiwa_6_joint=-0.720908098427898 iiwa_7_joint=1.425144466750978
iiwa_1_joint=1.059267358738939 iiwa_2_joint=0.85577756636354173 iiwa_3_joint=-0.273596547517788 iiwa_4_joint=-1.691666722720804 iiwa_5_joint=0.804011159615983 iiwa_6_joint=-0.720908098427898 iiwa_7_joint=1.55144466750978
iiwa_1_joint=1.059267358738939 iiwa_2_joint=0.78577756636354173 iiwa_3_joint=-0.333596547517788 iiwa_4_joint=-1.691666722720804 iiwa_5_joint=0.804011159615983 iiwa_6_joint=-0.720908098427898 iiwa_7_joint=1.47144466750978
