BrainLinks-BrainTools-Neurobots/neurobots_demonstrator/birrt/robot_motion_control/kuka_motion_control/trajectories/joint_pos_trajectories_output/square_trajectory_joint_trajectory.txt
lbr_1_joint lbr_2_joint lbr_3_joint lbr_4_joint lbr_5_joint lbr_6_joint lbr_7_joint 

1 1 1 1 1 1 1 
1.81839 -0.450382 2.30734 -0.284219 1.32226 -1.60482 -0.00764187 
1.87609 -0.428202 2.28724 -0.360657 1.29314 -1.62445 0.0316896 
1.88486 -0.425326 2.283 -0.371686 1.29004 -1.62767 0.0374295 
1.8934 -0.422576 2.27886 -0.382377 1.28705 -1.63086 0.0430001 
1.90171 -0.419941 2.27482 -0.392756 1.28416 -1.63403 0.048416 
1.90983 -0.417412 2.27087 -0.402851 1.28138 -1.63716 0.0536898 
1.91776 -0.414982 2.26701 -0.412681 1.27869 -1.64028 0.0588324 
1.92551 -0.412643 2.26322 -0.422267 1.27609 -1.64337 0.0638534 
1.93309 -0.410389 2.25952 -0.431624 1.27358 -1.64644 0.0687614 
1.94053 -0.408215 2.25588 -0.440768 1.27114 -1.6495 0.0735641 
1.94781 -0.406115 2.25231 -0.449712 1.26878 -1.65253 0.0782681 
1.95496 -0.404087 2.2488 -0.458468 1.26649 -1.65555 0.0828798 
1.96197 -0.402125 2.24536 -0.467047 1.26427 -1.65855 0.0874045 
1.96886 -0.400226 2.24197 -0.475459 1.26211 -1.66153 0.0918474 
1.97564 -0.398386 2.23863 -0.483712 1.26002 -1.6645 0.096213 
1.98229 -0.396604 2.23535 -0.491815 1.25799 -1.66745 0.100506 
1.98884 -0.394877 2.23212 -0.499775 1.25602 -1.67039 0.104729 
1.99528 -0.393201 2.22893 -0.507598 1.2541 -1.67331 0.108887 
2.00162 -0.391574 2.22579 -0.515292 1.25224 -1.67622 0.112982 
2.00787 -0.389995 2.22269 -0.522862 1.25044 -1.67911 0.117018 
2.01402 -0.388462 2.21964 -0.530313 1.24868 -1.68199 0.120997 
2.02008 -0.386973 2.21663 -0.537651 1.24698 -1.68486 0.124922 
2.02605 -0.385526 2.21366 -0.544879 1.24533 -1.68772 0.128796 
2.03194 -0.384119 2.21072 -0.552003 1.24372 -1.69056 0.132621 
2.03774 -0.382752 2.20783 -0.559026 1.24216 -1.69339 0.136398 
2.04347 -0.381423 2.20496 -0.565953 1.24065 -1.69621 0.140131 
2.04912 -0.38013 2.20214 -0.572785 1.23918 -1.69902 0.14382 
2.0547 -0.378873 2.19934 -0.579528 1.23776 -1.70181 0.147468 
2.0602 -0.377651 2.19658 -0.586184 1.23637 -1.7046 0.151076 
2.06563 -0.376462 2.19385 -0.592756 1.23503 -1.70737 0.154646 
2.071 -0.375305 2.19115 -0.599247 1.23373 -1.71013 0.158179 
2.07629 -0.37418 2.18848 -0.605659 1.23248 -1.71288 0.161677 
2.08152 -0.373085 2.18584 -0.611995 1.23126 -1.71562 0.16514 
2.08669 -0.372021 2.18323 -0.618257 1.23008 -1.71835 0.168572 
2.09179 -0.370986 2.18065 -0.624447 1.22893 -1.72106 0.171971 
2.09684 -0.369979 2.17809 -0.630568 1.22783 -1.72377 0.175341 
2.10182 -0.369 2.17556 -0.636621 1.22676 -1.72647 0.178681 
2.10674 -0.368048 2.17305 -0.642609 1.22573 -1.72915 0.181993 
2.11161 -0.367123 2.17057 -0.648533 1.22474 -1.73182 0.185277 
2.11642 -0.366224 2.16811 -0.654395 1.22378 -1.73449 0.188536 
2.12118 -0.36535 2.16568 -0.660197 1.22286 -1.73714 0.191769 
2.12588 -0.364501 2.16327 -0.665939 1.22197 -1.73978 0.194978 
2.13053 -0.363676 2.16089 -0.671624 1.22112 -1.74241 0.198163 
2.13513 -0.362876 2.15852 -0.677254 1.2203 -1.74503 0.201325 
2.13967 -0.362099 2.15618 -0.682828 1.21951 -1.74764 0.204466 
2.14417 -0.361345 2.15386 -0.68835 1.21875 -1.75024 0.207585 
2.14862 -0.360614 2.15156 -0.693819 1.21803 -1.75283 0.210683 
2.15301 -0.359905 2.14928 -0.699237 1.21734 -1.75541 0.213762 
2.15736 -0.359218 2.14702 -0.704606 1.21669 -1.75797 0.216821 
2.16167 -0.358553 2.14478 -0.709926 1.21606 -1.76053 0.219862 
2.16593 -0.357909 2.14256 -0.715198 1.21547 -1.76308 0.222884 
2.17014 -0.357286 2.14036 -0.720425 1.2149 -1.76561 0.22589 
2.17431 -0.356684 2.13818 -0.725605 1.21437 -1.76814 0.228878 
2.17843 -0.356102 2.13602 -0.730741 1.21387 -1.77066 0.23185 
2.18251 -0.35554 2.13388 -0.735833 1.2134 -1.77316 0.234807 
2.18655 -0.354998 2.13175 -0.740883 1.21296 -1.77566 0.237748 
2.19054 -0.354476 2.12964 -0.74589 1.21254 -1.77814 0.240675 
2.19449 -0.353973 2.12755 -0.750856 1.21216 -1.78061 0.243587 
2.19841 -0.353489 2.12547 -0.755782 1.21181 -1.78308 0.246485 
2.20228 -0.353024 2.12341 -0.760669 1.21148 -1.78553 0.24937 
2.20611 -0.352577 2.12137 -0.765516 1.21119 -1.78797 0.252243 
2.2099 -0.352149 2.11935 -0.770326 1.21092 -1.7904 0.255102 
2.21365 -0.35174 2.11734 -0.775097 1.21068 -1.79282 0.25795 
2.21737 -0.351348 2.11534 -0.779832 1.21047 -1.79523 0.260786 
2.22104 -0.350974 2.11336 -0.784531 1.21029 -1.79763 0.26361 
2.22468 -0.350618 2.1114 -0.789195 1.21013 -1.80002 0.266424 
2.22828 -0.35028 2.10945 -0.793823 1.21001 -1.8024 0.269227 
2.23185 -0.349959 2.10752 -0.798417 1.20991 -1.80477 0.27202 
2.23538 -0.349655 2.1056 -0.802977 1.20983 -1.80712 0.274804 
2.23887 -0.349368 2.1037 -0.807504 1.20979 -1.80947 0.277577 
2.24233 -0.349098 2.10181 -0.811998 1.20977 -1.81181 0.280341 
2.24575 -0.348846 2.09993 -0.81646 1.20978 -1.81413 0.283097 
2.24913 -0.348609 2.09807 -0.82089 1.20981 -1.81645 0.285844 
2.25249 -0.348389 2.09622 -0.825289 1.20987 -1.81875 0.288583 
2.25581 -0.348186 2.09439 -0.829657 1.20996 -1.82104 0.291313 
2.25909 -0.347999 2.09256 -0.833995 1.21007 -1.82332 0.294036 
2.26234 -0.347828 2.09076 -0.838302 1.21021 -1.82559 0.296752 
2.26556 -0.347673 2.08896 -0.842581 1.21038 -1.82785 0.29946 
2.26875 -0.347535 2.08718 -0.84683 1.21057 -1.8301 0.302161 
2.2719 -0.347412 2.08541 -0.851051 1.21078 -1.83234 0.304856 
2.27502 -0.347304 2.08365 -0.855244 1.21103 -1.83456 0.307544 
2.27811 -0.347213 2.08191 -0.859408 1.21129 -1.83678 0.310226 
2.28117 -0.347137 2.08017 -0.863546 1.21159 -1.83898 0.312902 
2.28419 -0.347076 2.07845 -0.867656 1.2119 -1.84118 0.315573 
2.28719 -0.347031 2.07675 -0.871739 1.21225 -1.84336 0.318238 
2.29016 -0.347002 2.07505 -0.875796 1.21261 -1.84553 0.320897 
2.29309 -0.346987 2.07337 -0.879827 1.213 -1.84769 0.323552 
2.296 -0.346988 2.07169 -0.883832 1.21342 -1.84984 0.326202 
2.29887 -0.347004 2.07003 -0.887812 1.21386 -1.85197 0.328847 
2.30172 -0.347034 2.06838 -0.891766 1.21433 -1.8541 0.331487 
2.30453 -0.34708 2.06674 -0.895696 1.21482 -1.85622 0.334123 
2.30732 -0.34714 2.06512 -0.899602 1.21533 -1.85832 0.336755 
2.31008 -0.347216 2.0635 -0.903483 1.21587 -1.86041 0.339383 
2.31281 -0.347306 2.06189 -0.90734 1.21643 -1.86249 0.342008 
2.31551 -0.347411 2.0603 -0.911173 1.21702 -1.86456 0.344628 
2.31819 -0.34753 2.05872 -0.914983 1.21762 -1.86662 0.347246 
2.32083 -0.347664 2.05714 -0.91877 1.21826 -1.86866 0.34986 
2.32345 -0.347812 2.05558 -0.922534 1.21891 -1.8707 0.35247 
2.32604 -0.347975 2.05403 -0.926276 1.21959 -1.87272 0.355078 
2.3286 -0.348153 2.05249 -0.929995 1.2203 -1.87473 0.357683 
2.33114 -0.348344 2.05096 -0.933692 1.22102 -1.87673 0.360286 
2.33365 -0.34855 2.04944 -0.937367 1.22177 -1.87872 0.362886 
2.33614 -0.34877 2.04793 -0.941021 1.22254 -1.8807 0.365483 
2.33859 -0.349004 2.04642 -0.944653 1.22334 -1.88266 0.368078 
2.34102 -0.349253 2.04493 -0.948263 1.22415 -1.88461 0.370671 
2.34343 -0.349515 2.04345 -0.951853 1.225 -1.88655 0.373262 
2.34581 -0.349792 2.04198 -0.955422 1.22586 -1.88848 0.375851 
2.34816 -0.350082 2.04052 -0.95897 1.22674 -1.8904 0.378438 
2.35049 -0.350387 2.03907 -0.962498 1.22765 -1.89231 0.381023 
2.35279 -0.350705 2.03763 -0.966006 1.22858 -1.8942 0.383607 
2.35507 -0.351037 2.0362 -0.969493 1.22953 -1.89608 0.38619 
2.35733 -0.351383 2.03477 -0.972961 1.23051 -1.89795 0.388771 
2.35956 -0.351743 2.03336 -0.976409 1.2315 -1.89981 0.391351 
2.36176 -0.352117 2.03196 -0.979838 1.23252 -1.90166 0.393929 
2.36394 -0.352504 2.03056 -0.983248 1.23356 -1.90349 0.396507 
2.3661 -0.352905 2.02917 -0.986638 1.23462 -1.90531 0.399083 
2.36823 -0.353319 2.0278 -0.990009 1.23571 -1.90712 0.401659 
2.37034 -0.353748 2.02643 -0.993362 1.23681 -1.90892 0.404233 
2.37243 -0.354189 2.02507 -0.996696 1.23794 -1.91071 0.406807 
2.37449 -0.354644 2.02372 -1.00001 1.23909 -1.91248 0.409381 
2.37653 -0.355113 2.02238 -1.00331 1.24025 -1.91424 0.411953 
2.37855 -0.355595 2.02105 -1.00659 1.24144 -1.91599 0.414525 
2.38054 -0.356091 2.01973 -1.00985 1.24265 -1.91773 0.417097 
2.38251 -0.3566 2.01841 -1.01309 1.24389 -1.91945 0.419668 
2.38446 -0.357122 2.0171 -1.01632 1.24514 -1.92117 0.422239 
2.38639 -0.357658 2.01581 -1.01953 1.24641 -1.92287 0.42481 
2.38829 -0.358206 2.01452 -1.02272 1.2477 -1.92456 0.427381 
2.39017 -0.358769 2.01324 -1.02589 1.24902 -1.92623 0.429951 
2.39203 -0.359344 2.01197 -1.02904 1.25035 -1.92789 0.432521 
2.39387 -0.359932 2.0107 -1.03218 1.25171 -1.92955 0.435091 
2.39569 -0.360534 2.00945 -1.03531 1.25308 -1.93118 0.437662 
2.39748 -0.361149 2.0082 -1.03841 1.25448 -1.93281 0.440232 
2.39926 -0.361776 2.00696 -1.0415 1.25589 -1.93443 0.442802 
2.40101 -0.362417 2.00573 -1.04457 1.25733 -1.93603 0.445372 
2.40274 -0.363071 2.00451 -1.04763 1.25878 -1.93762 0.447943 
2.40445 -0.363738 2.00329 -1.05067 1.26026 -1.93919 0.450514 
2.40615 -0.364418 2.00209 -1.05369 1.26175 -1.94076 0.453085 
2.40782 -0.365111 2.00089 -1.0567 1.26327 -1.94231 0.455656 
2.40947 -0.365816 1.9997 -1.05969 1.2648 -1.94385 0.458227 
2.4111 -0.366535 1.99852 -1.06266 1.26635 -1.94538 0.460799 
2.41271 -0.367266 1.99734 -1.06562 1.26793 -1.94689 0.463371 
2.4143 -0.36801 1.99617 -1.06857 1.26952 -1.94839 0.465944 
2.41587 -0.368767 1.99502 -1.07149 1.27113 -1.94988 0.468517 
2.41742 -0.369537 1.99386 -1.07441 1.27276 -1.95136 0.47109 
2.41895 -0.370319 1.99272 -1.0773 1.2744 -1.95282 0.473664 
2.42046 -0.371115 1.99158 -1.08019 1.27607 -1.95427 0.476238 
2.42196 -0.371922 1.99045 -1.08305 1.27775 -1.95571 0.478812 
2.42343 -0.372743 1.98933 -1.0859 1.27946 -1.95714 0.481387 
2.42489 -0.373576 1.98822 -1.08874 1.28118 -1.95855 0.483963 
2.42632 -0.374421 1.98711 -1.09156 1.28292 -1.95996 0.486538 
2.42774 -0.375279 1.98602 -1.09437 1.28468 -1.96134 0.489115 
2.42914 -0.37615 1.98492 -1.09716 1.28645 -1.96272 0.491692 
2.43052 -0.377033 1.98384 -1.09994 1.28825 -1.96408 0.494269 
2.43189 -0.377928 1.98276 -1.1027 1.29006 -1.96543 0.496846 
2.43323 -0.378836 1.98169 -1.10545 1.29189 -1.96677 0.499425 
2.43456 -0.379757 1.98063 -1.10819 1.29373 -1.9681 0.502003 
2.43587 -0.380689 1.97958 -1.11091 1.2956 -1.96941 0.504582 
2.43716 -0.381634 1.97853 -1.11361 1.29748 -1.97071 0.507162 
2.43843 -0.382591 1.97749 -1.11631 1.29938 -1.972 0.509742 
2.43969 -0.383561 1.97645 -1.11898 1.3013 -1.97327 0.512322 
2.44093 -0.384543 1.97543 -1.12165 1.30323 -1.97453 0.514903 
2.44215 -0.385537 1.97441 -1.1243 1.30518 -1.97578 0.517484 
2.44336 -0.386543 1.97339 -1.12693 1.30715 -1.97702 0.520065 
2.44455 -0.387561 1.97239 -1.12956 1.30913 -1.97824 0.522647 
2.44572 -0.388592 1.97139 -1.13216 1.31113 -1.97946 0.525229 
2.44688 -0.389634 1.97039 -1.13476 1.31315 -1.98065 0.527812 
2.44802 -0.390689 1.96941 -1.13734 1.31518 -1.98184 0.530394 
2.44914 -0.391755 1.96843 -1.13991 1.31723 -1.98301 0.532977 
2.45025 -0.392834 1.96746 -1.14246 1.3193 -1.98417 0.535561 
2.45134 -0.393924 1.96649 -1.145 1.32138 -1.98532 0.538144 
2.45241 -0.395027 1.96553 -1.14753 1.32348 -1.98646 0.540727 
2.45347 -0.396141 1.96458 -1.15005 1.32559 -1.98758 0.543311 
2.45452 -0.397267 1.96363 -1.15255 1.32772 -1.98869 0.545895 
2.45555 -0.398405 1.96269 -1.15504 1.32987 -1.98979 0.548479 
2.45656 -0.399555 1.96176 -1.15751 1.33203 -1.99087 0.551063 
2.45756 -0.400717 1.96083 -1.15997 1.3342 -1.99194 0.553646 
2.45854 -0.40189 1.95991 -1.16242 1.3364 -1.993 0.55623 
2.45951 -0.403075 1.959 -1.16486 1.3386 -1.99405 0.558814 
2.46046 -0.404272 1.95809 -1.16728 1.34082 -1.99508 0.561397 
2.4614 -0.40548 1.95718 -1.16969 1.34306 -1.99611 0.563981 
2.46232 -0.4067 1.95629 -1.17209 1.34531 -1.99711 0.566564 
2.46323 -0.407932 1.9554 -1.17447 1.34758 -1.99811 0.569147 
2.46413 -0.409175 1.95452 -1.17685 1.34986 -1.99909 0.57173 
2.46501 -0.41043 1.95364 -1.17921 1.35215 -2.00007 0.574312 
2.46587 -0.411696 1.95277 -1.18155 1.35446 -2.00102 0.576894 
2.46673 -0.412973 1.9519 -1.18389 1.35678 -2.00197 0.579475 
2.46757 -0.414262 1.95104 -1.18621 1.35912 -2.0029 0.582056 
2.46839 -0.415563 1.95019 -1.18852 1.36147 -2.00382 0.584637 
2.4692 -0.416875 1.94934 -1.19082 1.36384 -2.00473 0.587217 
2.47 -0.418198 1.9485 -1.19311 1.36621 -2.00563 0.589796 
2.47079 -0.419532 1.94766 -1.19538 1.36861 -2.00651 0.592374 
2.47156 -0.420877 1.94683 -1.19764 1.37101 -2.00738 0.594952 
2.47231 -0.422234 1.94601 -1.19989 1.37343 -2.00824 0.597528 
2.47306 -0.4236 1.94519 -1.20213 1.37586 -2.00909 0.600104 
2.47379 -0.424977 1.94439 -1.20435 1.3783 -2.00993 0.602679 
2.4745 -0.426365 1.94358 -1.20656 1.38076 -2.01075 0.605252 
2.47521 -0.427763 1.94279 -1.20876 1.38322 -2.01156 0.607824 
2.4759 -0.429172 1.942 -1.21095 1.3857 -2.01236 0.610396 
2.47658 -0.430591 1.94122 -1.21313 1.38819 -2.01315 0.612965 
2.47724 -0.43202 1.94045 -1.21529 1.39069 -2.01393 0.615534 
2.47789 -0.433459 1.93968 -1.21745 1.3932 -2.0147 0.618101 
2.47853 -0.434909 1.93892 -1.21959 1.39573 -2.01545 0.620666 
2.47916 -0.436369 1.93817 -1.22172 1.39826 -2.01619 0.62323 
2.47977 -0.437839 1.93743 -1.22384 1.4008 -2.01692 0.625792 
2.48038 -0.439319 1.93669 -1.22594 1.40336 -2.01764 0.628353 
2.48097 -0.440809 1.93595 -1.22804 1.40593 -2.01835 0.630912 
2.48154 -0.44231 1.93523 -1.23012 1.40851 -2.01905 0.633469 
2.48211 -0.44382 1.93451 -1.23219 1.41109 -2.01974 0.636024 
2.48266 -0.44534 1.9338 -1.23425 1.41369 -2.02041 0.638578 
2.48321 -0.44687 1.93309 -1.2363 1.4163 -2.02108 0.641129 
2.48374 -0.44841 1.93239 -1.23834 1.41892 -2.02173 0.643678 
2.48426 -0.449959 1.9317 -1.24036 1.42155 -2.02237 0.646226 
2.48476 -0.451519 1.93102 -1.24238 1.42419 -2.023 0.648771 
2.48526 -0.453088 1.93034 -1.24438 1.42683 -2.02362 0.651313 
2.48574 -0.454666 1.92967 -1.24637 1.42949 -2.02423 0.653854 
2.48622 -0.456255 1.929 -1.24835 1.43216 -2.02482 0.656392 
2.48668 -0.457853 1.92834 -1.25032 1.43484 -2.02541 0.658928 
2.48713 -0.45946 1.92769 -1.25228 1.43752 -2.02598 0.661461 
2.48758 -0.461077 1.92704 -1.25422 1.44022 -2.02655 0.663992 
2.48801 -0.462703 1.9264 -1.25616 1.44292 -2.0271 0.66652 
2.48843 -0.464339 1.92576 -1.25808 1.44563 -2.02764 0.669045 
2.48884 -0.465984 1.92513 -1.26 1.44836 -2.02817 0.671568 
2.48924 -0.467639 1.92451 -1.2619 1.45109 -2.0287 0.674087 
2.48963 -0.469303 1.9239 -1.26379 1.45383 -2.02921 0.676604 
2.49001 -0.470976 1.92328 -1.26567 1.45657 -2.02971 0.679118 
2.49038 -0.472658 1.92268 -1.26754 1.45933 -2.0302 0.681629 
2.49073 -0.474349 1.92208 -1.26939 1.46209 -2.03067 0.684136 
2.49108 -0.47605 1.92149 -1.27124 1.46486 -2.03114 0.686641 
2.49142 -0.477759 1.9209 -1.27308 1.46765 -2.0316 0.689142 
2.49175 -0.479478 1.92032 -1.2749 1.47043 -2.03205 0.69164 
2.49208 -0.481205 1.91975 -1.27671 1.47323 -2.03248 0.694134 
2.49239 -0.482941 1.91918 -1.27852 1.47603 -2.03291 0.696626 
2.49269 -0.484687 1.91862 -1.28031 1.47884 -2.03333 0.699113 
2.49298 -0.486441 1.91806 -1.28209 1.48166 -2.03373 0.701597 
2.49327 -0.488204 1.91751 -1.28386 1.48449 -2.03413 0.704077 
2.49354 -0.489975 1.91696 -1.28562 1.48732 -2.03452 0.706554 
2.49381 -0.491756 1.91642 -1.28737 1.49016 -2.03489 0.709027 
2.49406 -0.493545 1.91589 -1.28911 1.49301 -2.03526 0.711496 
2.49431 -0.495342 1.91536 -1.29084 1.49586 -2.03561 0.713961 
2.49455 -0.497148 1.91484 -1.29255 1.49872 -2.03596 0.716422 
2.49479 -0.498963 1.91432 -1.29426 1.50159 -2.0363 0.718878 
2.49501 -0.500786 1.91381 -1.29596 1.50446 -2.03662 0.721331 
2.49522 -0.502618 1.9133 -1.29764 1.50734 -2.03694 0.72378 
2.49543 -0.504458 1.9128 -1.29931 1.51023 -2.03725 0.726224 
2.49563 -0.506306 1.9123 -1.30098 1.51312 -2.03754 0.728664 
2.49582 -0.508163 1.91181 -1.30263 1.51602 -2.03783 0.7311 
2.496 -0.510028 1.91133 -1.30427 1.51892 -2.03811 0.733531 
2.49617 -0.511901 1.91085 -1.30591 1.52183 -2.03838 0.735957 
2.49634 -0.513782 1.91037 -1.30753 1.52475 -2.03864 0.738379 
2.4965 -0.515671 1.9099 -1.30914 1.52767 -2.03889 0.740796 
2.49665 -0.517569 1.90944 -1.31074 1.53059 -2.03913 0.743209 
2.4968 -0.519474 1.90898 -1.31233 1.53353 -2.03936 0.745616 
2.49693 -0.521388 1.90853 -1.31391 1.53646 -2.03959 0.748019 
2.49706 -0.523309 1.90808 -1.31548 1.53941 -2.0398 0.750417 
2.49718 -0.525239 1.90763 -1.31704 1.54236 -2.04 0.75281 
2.4973 -0.527176 1.9072 -1.31859 1.54531 -2.0402 0.755197 
2.49741 -0.529121 1.90676 -1.32012 1.54827 -2.04039 0.75758 
2.49751 -0.531073 1.90633 -1.32165 1.55123 -2.04056 0.759957 
2.4976 -0.533034 1.90591 -1.32317 1.5542 -2.04073 0.76233 
2.49769 -0.535002 1.90549 -1.32468 1.55717 -2.04089 0.764696 
2.49777 -0.536977 1.90508 -1.32617 1.56014 -2.04105 0.767058 
2.49784 -0.538961 1.90467 -1.32766 1.56313 -2.04119 0.769414 
2.49791 -0.540952 1.90426 -1.32914 1.56611 -2.04132 0.771764 
2.49797 -0.54295 1.90386 -1.3306 1.5691 -2.04145 0.774109 
2.49802 -0.544955 1.90347 -1.33206 1.57209 -2.04157 0.776448 
2.49807 -0.546969 1.90308 -1.3335 1.57509 -2.04168 0.778782 
2.49811 -0.548989 1.90269 -1.33494 1.57809 -2.04178 0.78111 
2.49814 -0.551017 1.90231 -1.33636 1.5811 -2.04187 0.783432 
2.49817 -0.553052 1.90194 -1.33778 1.58411 -2.04196 0.785748 
2.4982 -0.555094 1.90157 -1.33918 1.58712 -2.04203 0.788058 
2.49821 -0.557143 1.9012 -1.34058 1.59014 -2.0421 0.790362 
2.49822 -0.559199 1.90084 -1.34196 1.59316 -2.04216 0.79266 
2.49823 -0.561263 1.90048 -1.34333 1.59618 -2.04222 0.794952 
2.49823 -0.563333 1.90013 -1.3447 1.5992 -2.04226 0.797238 
2.49822 -0.565411 1.89978 -1.34605 1.60223 -2.0423 0.799517 
2.49821 -0.567495 1.89944 -1.34739 1.60527 -2.04233 0.801791 
2.49819 -0.569586 1.8991 -1.34873 1.6083 -2.04235 0.804058 
2.49817 -0.571684 1.89876 -1.35005 1.61134 -2.04237 0.806318 
2.49814 -0.573789 1.89843 -1.35137 1.61438 -2.04238 0.808572 
2.4981 -0.5759 1.89811 -1.35267 1.61742 -2.04238 0.81082 
2.49806 -0.578018 1.89778 -1.35396 1.62047 -2.04237 0.813061 
2.49802 -0.580143 1.89747 -1.35525 1.62352 -2.04236 0.815296 
2.49797 -0.582274 1.89715 -1.35652 1.62657 -2.04234 0.817523 
2.49791 -0.584412 1.89685 -1.35778 1.62962 -2.04231 0.819745 
2.49785 -0.586556 1.89654 -1.35903 1.63268 -2.04227 0.821959 
2.49779 -0.588706 1.89624 -1.36028 1.63574 -2.04223 0.824167 
2.49772 -0.590863 1.89595 -1.36151 1.6388 -2.04218 0.826367 
2.49764 -0.593027 1.89566 -1.36273 1.64186 -2.04213 0.828561 
2.49756 -0.595196 1.89537 -1.36395 1.64492 -2.04207 0.830748 
2.49748 -0.597372 1.89509 -1.36515 1.64799 -2.042 0.832928 
2.49739 -0.599554 1.89481 -1.36634 1.65105 -2.04192 0.835101 
2.4973 -0.601742 1.89454 -1.36753 1.65412 -2.04184 0.837267 
2.4972 -0.603936 1.89427 -1.3687 1.65719 -2.04175 0.839425 
2.49709 -0.606136 1.894 -1.36986 1.66027 -2.04166 0.841577 
2.49699 -0.608342 1.89374 -1.37102 1.66334 -2.04156 0.843721 
2.49687 -0.610554 1.89348 -1.37216 1.66641 -2.04145 0.845858 
2.49676 -0.612772 1.89323 -1.37329 1.66949 -2.04134 0.847988 
2.49664 -0.614996 1.89298 -1.37442 1.67257 -2.04122 0.85011 
2.49651 -0.617225 1.89274 -1.37553 1.67564 -2.0411 0.852225 
2.49638 -0.61946 1.8925 -1.37664 1.67872 -2.04097 0.854333 
2.49625 -0.621701 1.89226 -1.37773 1.6818 -2.04083 0.856433 
2.49611 -0.623947 1.89203 -1.37881 1.68488 -2.04069 0.858526 
2.49597 -0.626199 1.8918 -1.37989 1.68796 -2.04055 0.860611 
2.49583 -0.628456 1.89157 -1.38095 1.69105 -2.04039 0.862688 
2.49568 -0.630719 1.89135 -1.38201 1.69413 -2.04024 0.864758 
2.49552 -0.632987 1.89114 -1.38305 1.69721 -2.04007 0.866821 
2.49537 -0.63526 1.89093 -1.38409 1.7003 -2.03991 0.868875 
2.49521 -0.637539 1.89072 -1.38511 1.70338 -2.03973 0.870922 
2.49504 -0.639823 1.89051 -1.38613 1.70646 -2.03956 0.872962 
2.49487 -0.642112 1.89031 -1.38713 1.70955 -2.03937 0.874993 
2.4947 -0.644406 1.89012 -1.38813 1.71263 -2.03918 0.877017 
2.49453 -0.646706 1.88993 -1.38912 1.71572 -2.03899 0.879033 
2.49435 -0.64901 1.88974 -1.39009 1.7188 -2.0388 0.881041 
2.49416 -0.651319 1.88955 -1.39106 1.72189 -2.03859 0.883041 
2.49398 -0.653633 1.88937 -1.39202 1.72497 -2.03839 0.885033 
2.49379 -0.655952 1.8892 -1.39296 1.72806 -2.03818 0.887018 
2.4936 -0.658276 1.88903 -1.3939 1.73114 -2.03796 0.888994 
2.4934 -0.660604 1.88886 -1.39483 1.73422 -2.03774 0.890963 
2.4932 -0.662937 1.88869 -1.39574 1.73731 -2.03752 0.892923 
2.493 -0.665275 1.88853 -1.39665 1.74039 -2.03729 0.894876 
2.49279 -0.667618 1.88838 -1.39755 1.74347 -2.03706 0.89682 
2.49258 -0.669964 1.88823 -1.39844 1.74655 -2.03683 0.898757 
2.49237 -0.672316 1.88808 -1.39932 1.74963 -2.03659 0.900685 
2.49215 -0.674671 1.88793 -1.40019 1.75271 -2.03634 0.902605 
2.49193 -0.677032 1.88779 -1.40105 1.75579 -2.0361 0.904517 
2.49171 -0.679396 1.88766 -1.4019 1.75887 -2.03585 0.906421 
2.49149 -0.681765 1.88752 -1.40274 1.76195 -2.03559 0.908317 
2.49126 -0.684137 1.88739 -1.40357 1.76502 -2.03534 0.910205 
2.49103 -0.686514 1.88727 -1.40439 1.7681 -2.03508 0.912085 
2.4908 -0.688895 1.88715 -1.4052 1.77117 -2.03481 0.913956 
2.49056 -0.69128 1.88703 -1.406 1.77424 -2.03455 0.915819 
2.49032 -0.693669 1.88692 -1.40679 1.77732 -2.03428 0.917674 
2.49008 -0.696062 1.88681 -1.40757 1.78039 -2.03401 0.919521 
2.48983 -0.698459 1.88671 -1.40834 1.78345 -2.03373 0.921359 
2.48959 -0.700859 1.8866 -1.4091 1.78652 -2.03345 0.92319 
2.48934 -0.703264 1.88651 -1.40986 1.78959 -2.03317 0.925012 
2.48908 -0.705672 1.88641 -1.4106 1.79265 -2.03289 0.926825 
2.48883 -0.708083 1.88632 -1.41133 1.79571 -2.03261 0.928631 
2.48857 -0.710498 1.88624 -1.41206 1.79878 -2.03232 0.930428 
2.48831 -0.712917 1.88616 -1.41277 1.80183 -2.03203 0.932217 
2.48805 -0.715339 1.88608 -1.41348 1.80489 -2.03173 0.933998 
2.48778 -0.717765 1.88601 -1.41417 1.80795 -2.03144 0.93577 
2.48751 -0.720194 1.88594 -1.41485 1.811 -2.03114 0.937535 
2.48724 -0.722626 1.88587 -1.41553 1.81405 -2.03084 0.939291 
2.48697 -0.725061 1.88581 -1.4162 1.8171 -2.03054 0.941038 
2.48669 -0.7275 1.88575 -1.41685 1.82015 -2.03024 0.942778 
2.48641 -0.729941 1.8857 -1.4175 1.8232 -2.02994 0.944509 
2.48613 -0.732386 1.88564 -1.41814 1.82624 -2.02963 0.946231 
2.48585 -0.734834 1.8856 -1.41876 1.82928 -2.02933 0.947946 
2.48557 -0.737285 1.88556 -1.41938 1.83232 -2.02902 0.949652 
2.48528 -0.739739 1.88552 -1.41999 1.83535 -2.02871 0.95135 
2.48499 -0.742195 1.88548 -1.42059 1.83839 -2.0284 0.95304 
2.4847 -0.744655 1.88545 -1.42117 1.84142 -2.02808 0.954722 
2.4844 -0.747117 1.88542 -1.42175 1.84445 -2.02777 0.956395 
2.48411 -0.749581 1.8854 -1.42232 1.84748 -2.02746 0.95806 
2.48381 -0.752049 1.88538 -1.42288 1.8505 -2.02714 0.959717 
2.48351 -0.754519 1.88537 -1.42343 1.85352 -2.02682 0.961365 
2.48321 -0.756991 1.88536 -1.42397 1.85654 -2.02651 0.963006 
2.4829 -0.759466 1.88535 -1.42451 1.85956 -2.02619 0.964638 
2.48259 -0.761944 1.88534 -1.42503 1.86257 -2.02587 0.966262 
2.48229 -0.764423 1.88534 -1.42554 1.86558 -2.02555 0.967878 
2.48198 -0.766905 1.88535 -1.42604 1.86859 -2.02523 0.969486 
2.48166 -0.76939 1.88536 -1.42653 1.87159 -2.02491 0.971085 
2.48135 -0.771876 1.88537 -1.42702 1.87459 -2.0246 0.972677 
2.48103 -0.774365 1.88539 -1.42749 1.87759 -2.02428 0.97426 
2.48071 -0.776856 1.88541 -1.42795 1.88059 -2.02396 0.975835 
2.48039 -0.779349 1.88543 -1.42841 1.88358 -2.02364 0.977402 
2.48007 -0.781843 1.88546 -1.42885 1.88657 -2.02332 0.978961 
2.47974 -0.78434 1.88549 -1.42929 1.88956 -2.023 0.980512 
2.47942 -0.786839 1.88552 -1.42971 1.89254 -2.02268 0.982055 
2.47909 -0.789339 1.88556 -1.43013 1.89552 -2.02236 0.98359 
2.47876 -0.791841 1.88561 -1.43054 1.8985 -2.02204 0.985117 
2.47843 -0.794345 1.88565 -1.43093 1.90147 -2.02172 0.986636 
2.4781 -0.796851 1.88571 -1.43132 1.90444 -2.0214 0.988147 
2.47776 -0.799358 1.88576 -1.4317 1.90741 -2.02109 0.98965 
2.47742 -0.801867 1.88582 -1.43207 1.91037 -2.02077 0.991146 
2.47708 -0.804377 1.88588 -1.43242 1.91333 -2.02045 0.992633 
2.47674 -0.806889 1.88595 -1.43277 1.91629 -2.02014 0.994113 
2.4764 -0.809402 1.88602 -1.43311 1.91924 -2.01983 0.995584 
2.47606 -0.811916 1.88609 -1.43344 1.92219 -2.01951 0.997048 
2.47571 -0.814432 1.88617 -1.43376 1.92513 -2.0192 0.998504 
2.47536 -0.816949 1.88626 -1.43407 1.92808 -2.01889 0.999953 
2.47501 -0.819468 1.88634 -1.43438 1.93102 -2.01858 1.00139 
2.47466 -0.821987 1.88643 -1.43467 1.93395 -2.01827 1.00283 
2.47431 -0.824508 1.88653 -1.43495 1.93688 -2.01797 1.00425 
2.47396 -0.827029 1.88663 -1.43522 1.93981 -2.01766 1.00567 
2.4736 -0.829552 1.88673 -1.43548 1.94273 -2.01736 1.00708 
2.47324 -0.832075 1.88683 -1.43574 1.94565 -2.01706 1.00848 
2.47289 -0.8346 1.88694 -1.43598 1.94857 -2.01676 1.00988 
2.47253 -0.837125 1.88706 -1.43622 1.95148 -2.01646 1.01126 
2.47216 -0.839651 1.88718 -1.43644 1.95439 -2.01616 1.01264 
2.4718 -0.842178 1.8873 -1.43666 1.95729 -2.01587 1.01402 
2.47144 -0.844706 1.88742 -1.43686 1.96019 -2.01558 1.01538 
2.47107 -0.847235 1.88755 -1.43706 1.96309 -2.01529 1.01674 
2.4707 -0.849764 1.88769 -1.43724 1.96598 -2.015 1.01809 
2.47033 -0.852293 1.88782 -1.43742 1.96887 -2.01471 1.01943 
2.46996 -0.854823 1.88796 -1.43759 1.97175 -2.01443 1.02077 
2.46959 -0.857354 1.88811 -1.43775 1.97463 -2.01415 1.02209 
2.46921 -0.859885 1.88826 -1.4379 1.9775 -2.01387 1.02341 
2.46884 -0.862416 1.88841 -1.43803 1.98037 -2.01359 1.02473 
2.46846 -0.864948 1.88857 -1.43816 1.98324 -2.01332 1.02604 
2.46808 -0.86748 1.88873 -1.43828 1.9861 -2.01305 1.02733 
2.4677 -0.870013 1.88889 -1.43839 1.98896 -2.01278 1.02863 
2.46732 -0.872545 1.88906 -1.43849 1.99182 -2.01251 1.02991 
2.46694 -0.875078 1.88923 -1.43859 1.99467 -2.01225 1.03119 
2.46655 -0.877611 1.88941 -1.43867 1.99751 -2.01199 1.03246 
2.46617 -0.880144 1.88959 -1.43874 2.00035 -2.01173 1.03373 
2.46578 -0.882677 1.88977 -1.4388 2.00319 -2.01147 1.03498 
2.46539 -0.88521 1.88996 -1.43885 2.00602 -2.01122 1.03623 
2.465 -0.887743 1.89015 -1.4389 2.00885 -2.01097 1.03748 
2.46461 -0.890276 1.89035 -1.43893 2.01167 -2.01073 1.03871 
2.46422 -0.892809 1.89055 -1.43896 2.01449 -2.01049 1.03994 
2.46382 -0.895341 1.89075 -1.43897 2.01731 -2.01025 1.04117 
2.46343 -0.897874 1.89096 -1.43898 2.02012 -2.01001 1.04238 
2.46303 -0.900406 1.89117 -1.43897 2.02292 -2.00978 1.04359 
2.46263 -0.902938 1.89138 -1.43896 2.02572 -2.00955 1.0448 
2.46223 -0.905469 1.8916 -1.43893 2.02852 -2.00933 1.046 
2.46183 -0.908001 1.89182 -1.4389 2.03131 -2.0091 1.04719 
2.46143 -0.910531 1.89205 -1.43886 2.0341 -2.00889 1.04837 
2.46102 -0.913062 1.89228 -1.43881 2.03688 -2.00867 1.04955 
2.46062 -0.915592 1.89251 -1.43875 2.03965 -2.00846 1.05072 
2.46021 -0.918121 1.89275 -1.43867 2.04243 -2.00825 1.05188 
2.4598 -0.92065 1.89299 -1.43859 2.0452 -2.00805 1.05304 
2.4594 -0.923178 1.89323 -1.4385 2.04796 -2.00785 1.05419 
2.45898 -0.925706 1.89348 -1.4384 2.05072 -2.00766 1.05534 
2.45857 -0.928233 1.89373 -1.4383 2.05347 -2.00747 1.05648 
2.45816 -0.930759 1.89399 -1.43818 2.05622 -2.00728 1.05761 
2.45775 -0.933285 1.89425 -1.43805 2.05896 -2.0071 1.05874 
2.45733 -0.935809 1.89451 -1.43791 2.0617 -2.00692 1.05986 
2.45691 -0.938333 1.89478 -1.43776 2.06444 -2.00674 1.06098 
2.45649 -0.940856 1.89505 -1.43761 2.06717 -2.00657 1.06208 
2.45607 -0.943379 1.89533 -1.43744 2.06989 -2.0064 1.06319 
2.45565 -0.9459 1.8956 -1.43726 2.07261 -2.00624 1.06429 
2.45523 -0.94842 1.89589 -1.43708 2.07533 -2.00609 1.06538 
2.45481 -0.95094 1.89617 -1.43688 2.07804 -2.00593 1.06646 
2.45438 -0.953458 1.89646 -1.43668 2.08074 -2.00578 1.06754 
2.45395 -0.955976 1.89675 -1.43646 2.08344 -2.00564 1.06862 
2.45353 -0.958492 1.89705 -1.43624 2.08614 -2.0055 1.06969 
2.4531 -0.961007 1.89735 -1.43601 2.08883 -2.00536 1.07075 
2.45267 -0.963521 1.89765 -1.43576 2.09151 -2.00523 1.07181 
2.45224 -0.966034 1.89796 -1.43551 2.09419 -2.00511 1.07286 
2.4518 -0.968546 1.89827 -1.43525 2.09686 -2.00499 1.0739 
2.45137 -0.971056 1.89859 -1.43498 2.09953 -2.00487 1.07494 
2.45093 -0.973565 1.89891 -1.4347 2.1022 -2.00476 1.07598 
2.4505 -0.976073 1.89923 -1.4344 2.10486 -2.00465 1.07701 
2.45006 -0.97858 1.89955 -1.4341 2.10751 -2.00455 1.07803 
2.44962 -0.981085 1.89988 -1.43379 2.11016 -2.00445 1.07905 
2.44918 -0.983589 1.90021 -1.43347 2.11281 -2.00436 1.08007 
2.44873 -0.986092 1.90055 -1.43315 2.11545 -2.00428 1.08108 
2.44829 -0.988593 1.90089 -1.43281 2.11808 -2.00419 1.08208 
2.44785 -0.991093 1.90123 -1.43246 2.12071 -2.00412 1.08308 
2.4474 -0.993591 1.90158 -1.4321 2.12333 -2.00405 1.08407 
2.44695 -0.996088 1.90193 -1.43173 2.12595 -2.00398 1.08506 
2.4465 -0.998583 1.90228 -1.43136 2.12856 -2.00392 1.08604 
2.44605 -1.00108 1.90264 -1.43097 2.13117 -2.00386 1.08702 
2.4456 -1.00357 1.903 -1.43057 2.13377 -2.00381 1.08799 
2.44515 -1.00606 1.90336 -1.43017 2.13637 -2.00376 1.08896 
2.44469 -1.00855 1.90373 -1.42975 2.13896 -2.00372 1.08993 
2.44424 -1.01104 1.9041 -1.42933 2.14155 -2.00369 1.09088 
2.44378 -1.01352 1.90447 -1.42889 2.14413 -2.00366 1.09184 
2.44332 -1.016 1.90485 -1.42845 2.14671 -2.00364 1.09279 
2.44286 -1.01849 1.90523 -1.428 2.14928 -2.00362 1.09373 
2.4424 -1.02097 1.90561 -1.42753 2.15184 -2.0036 1.09467 
2.44194 -1.02345 1.906 -1.42706 2.1544 -2.0036 1.09561 
2.44147 -1.02592 1.90639 -1.42658 2.15696 -2.00359 1.09654 
2.44101 -1.0284 1.90679 -1.42609 2.15951 -2.0036 1.09747 
2.44054 -1.03087 1.90718 -1.42559 2.16205 -2.00361 1.09839 
2.44007 -1.03334 1.90758 -1.42507 2.16459 -2.00362 1.09931 
2.4396 -1.03581 1.90799 -1.42455 2.16713 -2.00364 1.10022 
2.43913 -1.03828 1.90839 -1.42402 2.16965 -2.00367 1.10113 
2.43866 -1.04074 1.9088 -1.42348 2.17218 -2.0037 1.10203 
2.43819 -1.04321 1.90922 -1.42293 2.17469 -2.00373 1.10293 
2.43771 -1.04567 1.90963 -1.42237 2.17721 -2.00378 1.10383 
2.43723 -1.04813 1.91005 -1.42181 2.17971 -2.00382 1.10472 
2.43676 -1.05059 1.91047 -1.42123 2.18221 -2.00388 1.10561 
2.43628 -1.05304 1.9109 -1.42064 2.18471 -2.00394 1.10649 
2.4358 -1.0555 1.91133 -1.42004 2.1872 -2.004 1.10737 
2.43531 -1.05795 1.91176 -1.41943 2.18969 -2.00408 1.10825 
2.43483 -1.0604 1.91219 -1.41882 2.19216 -2.00415 1.10912 
2.43435 -1.06285 1.91263 -1.41819 2.19464 -2.00424 1.10999 
2.43386 -1.06529 1.91307 -1.41755 2.19711 -2.00433 1.11085 
2.43337 -1.06774 1.91352 -1.41691 2.19957 -2.00442 1.11171 
2.43288 -1.07018 1.91397 -1.41625 2.20203 -2.00452 1.11257 
2.43239 -1.07262 1.91442 -1.41559 2.20448 -2.00463 1.11342 
2.4319 -1.07506 1.91487 -1.41491 2.20693 -2.00474 1.11427 
2.4314 -1.07749 1.91532 -1.41423 2.20937 -2.00486 1.11512 
2.43091 -1.07992 1.91578 -1.41353 2.2118 -2.00499 1.11596 
2.43041 -1.08235 1.91625 -1.41283 2.21423 -2.00512 1.1168 
2.42991 -1.08478 1.91671 -1.41212 2.21666 -2.00526 1.11763 
2.42941 -1.08721 1.91718 -1.41139 2.21908 -2.0054 1.11846 
2.42891 -1.08963 1.91765 -1.41066 2.22149 -2.00555 1.11929 
2.42841 -1.09206 1.91812 -1.40992 2.2239 -2.0057 1.12011 
2.4279 -1.09448 1.9186 -1.40917 2.2263 -2.00587 1.12093 
2.42739 -1.09689 1.91908 -1.40841 2.2287 -2.00603 1.12175 
2.42689 -1.09931 1.91956 -1.40763 2.23109 -2.00621 1.12257 
2.42638 -1.10172 1.92004 -1.40685 2.23347 -2.00639 1.12338 
2.42587 -1.10413 1.92053 -1.40606 2.23585 -2.00657 1.12418 
2.42535 -1.10654 1.92102 -1.40526 2.23823 -2.00677 1.12499 
2.42484 -1.10895 1.92151 -1.40445 2.24059 -2.00696 1.12579 
2.42432 -1.11135 1.92201 -1.40363 2.24296 -2.00717 1.12659 
2.42381 -1.11375 1.92251 -1.4028 2.24531 -2.00738 1.12738 
2.42329 -1.11615 1.92301 -1.40196 2.24767 -2.0076 1.12817 
2.42277 -1.11855 1.92351 -1.40111 2.25001 -2.00782 1.12896 
2.42224 -1.12095 1.92402 -1.40025 2.25235 -2.00805 1.12975 
2.42172 -1.12334 1.92453 -1.39938 2.25469 -2.00829 1.13053 
2.42119 -1.12573 1.92504 -1.39851 2.25702 -2.00853 1.13131 
2.42067 -1.12812 1.92555 -1.39762 2.25934 -2.00878 1.13208 
2.42014 -1.1305 1.92607 -1.39672 2.26166 -2.00903 1.13286 
2.41961 -1.13288 1.92659 -1.39581 2.26397 -2.00929 1.13363 
2.41907 -1.13526 1.92711 -1.39489 2.26628 -2.00956 1.1344 
2.41854 -1.13764 1.92763 -1.39397 2.26858 -2.00984 1.13516 
2.418 -1.14002 1.92816 -1.39303 2.27088 -2.01012 1.13593 
2.41746 -1.14239 1.92869 -1.39208 2.27316 -2.0104 1.13669 
2.41693 -1.14476 1.92922 -1.39113 2.27545 -2.0107 1.13744 
2.41638 -1.14713 1.92975 -1.39016 2.27773 -2.01099 1.1382 
2.41584 -1.1495 1.93029 -1.38918 2.28 -2.0113 1.13895 
2.4153 -1.15186 1.93082 -1.3882 2.28227 -2.01161 1.1397 
2.41475 -1.15422 1.93137 -1.3872 2.28453 -2.01193 1.14044 
2.4142 -1.15658 1.93191 -1.3862 2.28678 -2.01226 1.14119 
2.41365 -1.15894 1.93245 -1.38518 2.28903 -2.01259 1.14193 
2.4131 -1.1613 1.933 -1.38416 2.29128 -2.01293 1.14267 
2.41254 -1.16365 1.93355 -1.38312 2.29352 -2.01327 1.14341 
2.41199 -1.166 1.9341 -1.38208 2.29575 -2.01362 1.14414 
2.41143 -1.16834 1.93466 -1.38102 2.29798 -2.01398 1.14487 
2.41087 -1.17069 1.93521 -1.37996 2.3002 -2.01434 1.1456 
2.41031 -1.17303 1.93577 -1.37888 2.30241 -2.01471 1.14633 
2.40975 -1.17537 1.93633 -1.3778 2.30462 -2.01509 1.14706 
2.40918 -1.17771 1.93689 -1.3767 2.30683 -2.01547 1.14778 
2.40862 -1.18004 1.93746 -1.3756 2.30903 -2.01586 1.1485 
2.40805 -1.18238 1.93802 -1.37448 2.31122 -2.01625 1.14922 
2.40748 -1.18471 1.93859 -1.37336 2.31341 -2.01666 1.14993 
2.4069 -1.18704 1.93916 -1.37223 2.31559 -2.01707 1.15065 
2.40633 -1.18936 1.93974 -1.37108 2.31776 -2.01748 1.15136 
2.40575 -1.19168 1.94031 -1.36993 2.31993 -2.0179 1.15207 
2.40517 -1.19401 1.94089 -1.36876 2.3221 -2.01833 1.15278 
2.40459 -1.19632 1.94147 -1.36759 2.32426 -2.01877 1.15348 
2.40401 -1.19864 1.94205 -1.36641 2.32641 -2.01921 1.15419 
2.40342 -1.20095 1.94263 -1.36521 2.32856 -2.01965 1.15489 
2.40284 -1.20326 1.94321 -1.36401 2.3307 -2.02011 1.15559 
2.40225 -1.20557 1.9438 -1.3628 2.33283 -2.02057 1.15629 
2.40166 -1.20788 1.94439 -1.36157 2.33496 -2.02104 1.15698 
2.40106 -1.21018 1.94498 -1.36034 2.33708 -2.02151 1.15768 
2.40047 -1.21249 1.94557 -1.3591 2.3392 -2.02199 1.15837 
2.39987 -1.21479 1.94616 -1.35784 2.34132 -2.02248 1.15906 
2.39927 -1.21708 1.94676 -1.35658 2.34342 -2.02297 1.15975 
2.39867 -1.21938 1.94735 -1.3553 2.34552 -2.02347 1.16044 
2.39807 -1.22167 1.94795 -1.35402 2.34762 -2.02398 1.16112 
2.39746 -1.22396 1.94855 -1.35273 2.34971 -2.02449 1.16181 
2.39685 -1.22625 1.94915 -1.35142 2.35179 -2.02501 1.16249 
2.39624 -1.22853 1.94976 -1.35011 2.35387 -2.02553 1.16317 
2.39563 -1.23082 1.95036 -1.34878 2.35594 -2.02606 1.16385 
2.39501 -1.2331 1.95097 -1.34745 2.35801 -2.0266 1.16452 
2.3944 -1.23537 1.95158 -1.34611 2.36007 -2.02715 1.1652 
2.39378 -1.23765 1.95219 -1.34475 2.36212 -2.0277 1.16587 
2.39316 -1.23992 1.9528 -1.34339 2.36417 -2.02826 1.16654 
2.39253 -1.2422 1.95341 -1.34201 2.36621 -2.02882 1.16721 
2.39191 -1.24445 1.95402 -1.34063 2.36824 -2.02939 1.16788 
2.39129 -1.24669 1.95462 -1.33926 2.37025 -2.02996 1.16853 
2.39068 -1.24892 1.95521 -1.33788 2.37224 -2.03052 1.16917 
2.39007 -1.25112 1.95579 -1.33651 2.37421 -2.03109 1.16981 
2.38946 -1.25331 1.95637 -1.33514 2.37616 -2.03165 1.17044 
2.38886 -1.25548 1.95694 -1.33377 2.37809 -2.03222 1.17106 
2.38826 -1.25764 1.9575 -1.3324 2.38 -2.03278 1.17167 
2.38767 -1.25977 1.95806 -1.33103 2.3819 -2.03335 1.17227 
2.38708 -1.26189 1.95861 -1.32967 2.38378 -2.03391 1.17286 
2.38649 -1.264 1.95915 -1.3283 2.38564 -2.03447 1.17345 
2.3859 -1.26609 1.95968 -1.32694 2.38748 -2.03504 1.17402 
2.38532 -1.26816 1.96021 -1.32558 2.38931 -2.0356 1.17459 
2.38475 -1.27021 1.96073 -1.32423 2.39112 -2.03616 1.17515 
2.38417 -1.27225 1.96125 -1.32287 2.39291 -2.03672 1.17571 
2.3836 -1.27427 1.96176 -1.32152 2.39468 -2.03728 1.17626 
2.38303 -1.27628 1.96226 -1.32017 2.39644 -2.03784 1.1768 
2.38247 -1.27827 1.96276 -1.31883 2.39818 -2.0384 1.17733 
2.38191 -1.28025 1.96325 -1.31749 2.39991 -2.03895 1.17785 
2.38136 -1.28221 1.96373 -1.31615 2.40161 -2.03951 1.17837 
2.3808 -1.28415 1.96421 -1.31481 2.40331 -2.04006 1.17888 
2.38025 -1.28608 1.96468 -1.31347 2.40498 -2.04062 1.17939 
2.37971 -1.288 1.96515 -1.31214 2.40664 -2.04117 1.17989 
2.37916 -1.28989 1.96561 -1.31082 2.40829 -2.04172 1.18038 
2.37862 -1.29178 1.96606 -1.30949 2.40992 -2.04228 1.18086 
2.37809 -1.29365 1.96651 -1.30817 2.41153 -2.04283 1.18134 
2.37755 -1.2955 1.96695 -1.30686 2.41313 -2.04338 1.18181 
2.37702 -1.29734 1.96739 -1.30554 2.41471 -2.04392 1.18228 
2.3765 -1.29917 1.96782 -1.30423 2.41628 -2.04447 1.18274 
2.37597 -1.30098 1.96825 -1.30293 2.41784 -2.04502 1.1832 
2.37545 -1.30277 1.96867 -1.30163 2.41938 -2.04556 1.18364 
2.37493 -1.30456 1.96909 -1.30033 2.4209 -2.0461 1.18409 
2.37442 -1.30632 1.9695 -1.29904 2.42242 -2.04665 1.18452 
2.37391 -1.30808 1.96991 -1.29775 2.42391 -2.04719 1.18496 
2.3734 -1.30982 1.97031 -1.29646 2.4254 -2.04773 1.18538 
2.3729 -1.31154 1.9707 -1.29518 2.42686 -2.04826 1.1858 
2.37239 -1.31326 1.97109 -1.2939 2.42832 -2.0488 1.18622 
2.37189 -1.31496 1.97148 -1.29263 2.42976 -2.04934 1.18663 
2.3714 -1.31664 1.97186 -1.29136 2.43119 -2.04987 1.18703 
2.37091 -1.31831 1.97224 -1.29009 2.43261 -2.0504 1.18743 
2.37042 -1.31997 1.97261 -1.28883 2.43401 -2.05093 1.18783 
2.36993 -1.32162 1.97298 -1.28758 2.4354 -2.05146 1.18822 
2.36944 -1.32325 1.97334 -1.28633 2.43677 -2.05199 1.1886 
2.36896 -1.32487 1.9737 -1.28508 2.43814 -2.05252 1.18898 
2.36848 -1.32648 1.97405 -1.28384 2.43949 -2.05304 1.18936 
2.36801 -1.32807 1.9744 -1.2826 2.44083 -2.05357 1.18973 
2.36753 -1.32965 1.97475 -1.28137 2.44215 -2.05409 1.1901 
2.36706 -1.33122 1.97509 -1.28014 2.44347 -2.05461 1.19046 
2.3666 -1.33278 1.97543 -1.27892 2.44477 -2.05513 1.19082 
2.36613 -1.33432 1.97576 -1.2777 2.44606 -2.05564 1.19117 
2.36567 -1.33585 1.97609 -1.27649 2.44733 -2.05616 1.19152 
2.36521 -1.33737 1.97641 -1.27528 2.4486 -2.05667 1.19186 
2.36476 -1.33888 1.97673 -1.27407 2.44985 -2.05718 1.1922 
2.3643 -1.34038 1.97705 -1.27287 2.4511 -2.05769 1.19254 
2.36385 -1.34186 1.97736 -1.27168 2.45233 -2.0582 1.19287 
2.36341 -1.34333 1.97767 -1.27049 2.45355 -2.05871 1.1932 
2.36296 -1.34479 1.97798 -1.26931 2.45475 -2.05921 1.19352 
2.36252 -1.34624 1.97828 -1.26813 2.45595 -2.05971 1.19384 
2.36208 -1.34768 1.97858 -1.26695 2.45714 -2.06022 1.19416 
2.36164 -1.3491 1.97887 -1.26578 2.45831 -2.06071 1.19447 
2.36121 -1.35052 1.97916 -1.26462 2.45948 -2.06121 1.19478 
2.36077 -1.35192 1.97945 -1.26346 2.46063 -2.06171 1.19509 
2.36034 -1.35331 1.97973 -1.26231 2.46177 -2.0622 1.19539 
2.35992 -1.35469 1.98001 -1.26116 2.46291 -2.06269 1.19569 
2.35949 -1.35606 1.98029 -1.26002 2.46403 -2.06318 1.19598 
2.35907 -1.35742 1.98056 -1.25888 2.46514 -2.06367 1.19627 
2.35865 -1.35877 1.98083 -1.25775 2.46624 -2.06416 1.19656 
2.35824 -1.36011 1.9811 -1.25662 2.46734 -2.06464 1.19684 
2.35782 -1.36143 1.98136 -1.25549 2.46842 -2.06512 1.19712 
2.35741 -1.36275 1.98162 -1.25438 2.46949 -2.0656 1.1974 
2.357 -1.36405 1.98188 -1.25327 2.47055 -2.06608 1.19768 
2.3566 -1.36535 1.98213 -1.25216 2.4716 -2.06656 1.19795 
2.35619 -1.36663 1.98239 -1.25106 2.47265 -2.06703 1.19822 
2.35579 -1.36791 1.98263 -1.24996 2.47368 -2.0675 1.19848 
2.35539 -1.36917 1.98288 -1.24887 2.4747 -2.06798 1.19874 
2.355 -1.37043 1.98312 -1.24778 2.47572 -2.06844 1.199 
2.3546 -1.37167 1.98336 -1.2467 2.47672 -2.06891 1.19926 
2.35421 -1.37291 1.98359 -1.24563 2.47772 -2.06937 1.19951 
2.35382 -1.37413 1.98383 -1.24456 2.47871 -2.06984 1.19976 
2.35343 -1.37535 1.98406 -1.2435 2.47969 -2.0703 1.20001 
2.35305 -1.37655 1.98429 -1.24244 2.48066 -2.07075 1.20025 
2.35267 -1.37775 1.98451 -1.24138 2.48162 -2.07121 1.20049 
2.35229 -1.37893 1.98473 -1.24033 2.48257 -2.07167 1.20073 
2.35191 -1.38011 1.98495 -1.23929 2.48351 -2.07212 1.20097 
2.35153 -1.38128 1.98517 -1.23825 2.48445 -2.07257 1.2012 
2.35116 -1.38243 1.98538 -1.23722 2.48537 -2.07301 1.20143 
2.35079 -1.38358 1.98559 -1.23619 2.48629 -2.07346 1.20166 
2.35042 -1.38472 1.9858 -1.23517 2.4872 -2.0739 1.20189 
2.35006 -1.38585 1.98601 -1.23416 2.4881 -2.07435 1.20211 
2.34969 -1.38697 1.98621 -1.23315 2.489 -2.07479 1.20233 
2.34933 -1.38808 1.98642 -1.23214 2.48988 -2.07522 1.20255 
2.34897 -1.38919 1.98662 -1.23114 2.49076 -2.07566 1.20276 
2.34862 -1.39028 1.98681 -1.23014 2.49163 -2.07609 1.20298 
2.34826 -1.39137 1.98701 -1.22915 2.49249 -2.07652 1.20319 
2.34791 -1.39245 1.9872 -1.22817 2.49334 -2.07695 1.2034 
2.34756 -1.39351 1.98739 -1.22719 2.49419 -2.07738 1.2036 
2.34721 -1.39457 1.98758 -1.22622 2.49503 -2.0778 1.20381 
2.34686 -1.39563 1.98776 -1.22525 2.49586 -2.07823 1.20401 
2.34652 -1.39667 1.98794 -1.22429 2.49668 -2.07865 1.20421 
2.34618 -1.3977 1.98812 -1.22333 2.4975 -2.07907 1.20441 
2.34584 -1.39873 1.9883 -1.22238 2.49831 -2.07948 1.2046 
2.3455 -1.39975 1.98848 -1.22143 2.49911 -2.0799 1.20479 
2.34517 -1.40076 1.98865 -1.22049 2.49991 -2.08031 1.20499 
2.34483 -1.40176 1.98883 -1.21955 2.50069 -2.08072 1.20517 
2.3445 -1.40276 1.989 -1.21862 2.50147 -2.08113 1.20536 
2.34417 -1.40374 1.98917 -1.21769 2.50225 -2.08153 1.20555 
2.34385 -1.40472 1.98933 -1.21677 2.50301 -2.08194 1.20573 
2.34352 -1.40569 1.9895 -1.21586 2.50377 -2.08234 1.20591 
2.3432 -1.40665 1.98966 -1.21495 2.50453 -2.08274 1.20609 
2.34288 -1.40761 1.98982 -1.21404 2.50527 -2.08314 1.20626 
2.34256 -1.40856 1.98998 -1.21314 2.50601 -2.08353 1.20644 
2.34224 -1.4095 1.99013 -1.21224 2.50675 -2.08393 1.20661 
2.34193 -1.41043 1.99029 -1.21135 2.50747 -2.08432 1.20678 
2.34162 -1.41136 1.99044 -1.21047 2.50819 -2.08471 1.20695 
2.34131 -1.41227 1.99059 -1.20959 2.50891 -2.08509 1.20712 
2.341 -1.41318 1.99074 -1.20872 2.50961 -2.08548 1.20729 
2.34069 -1.41409 1.99089 -1.20785 2.51032 -2.08586 1.20745 
2.34039 -1.41498 1.99104 -1.20698 2.51101 -2.08624 1.20761 
2.34008 -1.41587 1.99118 -1.20612 2.5117 -2.08662 1.20777 
2.33978 -1.41675 1.99132 -1.20527 2.51238 -2.087 1.20793 
2.33949 -1.41763 1.99146 -1.20442 2.51306 -2.08737 1.20809 
2.33919 -1.4185 1.9916 -1.20358 2.51373 -2.08774 1.20825 
2.33889 -1.41936 1.99174 -1.20274 2.5144 -2.08812 1.2084 
2.3386 -1.42021 1.99187 -1.2019 2.51506 -2.08848 1.20855 
2.33831 -1.42106 1.99201 -1.20108 2.51571 -2.08885 1.2087 
2.33802 -1.4219 1.99214 -1.20025 2.51636 -2.08921 1.20885 
2.33773 -1.42273 1.99227 -1.19943 2.517 -2.08958 1.209 
2.33745 -1.42356 1.9924 -1.19862 2.51763 -2.08994 1.20914 
2.33716 -1.42438 1.99253 -1.19781 2.51826 -2.09029 1.20929 
2.33688 -1.42519 1.99266 -1.19701 2.51889 -2.09065 1.20943 
2.3366 -1.426 1.99278 -1.19621 2.51951 -2.091 1.20957 
2.33632 -1.4268 1.9929 -1.19541 2.52012 -2.09136 1.20971 
2.33605 -1.4276 1.99303 -1.19462 2.52073 -2.09171 1.20985 
2.33577 -1.42838 1.99315 -1.19384 2.52134 -2.09205 1.20999 
2.3355 -1.42917 1.99327 -1.19306 2.52193 -2.0924 1.21012 
2.33523 -1.42994 1.99338 -1.19228 2.52253 -2.09274 1.21026 
2.33496 -1.43071 1.9935 -1.19151 2.52311 -2.09309 1.21039 
2.33469 -1.43148 1.99362 -1.19075 2.5237 -2.09343 1.21052 
2.33443 -1.43223 1.99373 -1.18999 2.52428 -2.09376 1.21065 
2.33417 -1.43298 1.99384 -1.18923 2.52485 -2.0941 1.21078 
2.3339 -1.43373 1.99395 -1.18848 2.52542 -2.0941 1.21091 
2.33364 -1.43447 1.99406 -1.18774 2.52598 -2.0941 1.21104 
2.33339 -1.4352 1.99417 -1.18699 2.52653 -2.0941 1.21116 
2.33313 -1.43593 1.99428 -1.18626 2.52708 -2.0941 1.21129 
2.33287 -1.43664 1.99439 -1.18553 2.52763 -2.0941 1.21141 
2.33262 -1.43736 1.9945 -1.1848 2.52817 -2.0941 1.21154 
2.33237 -1.43806 1.99461 -1.18408 2.52871 -2.0941 1.21166 
2.33212 -1.43876 1.99472 -1.18337 2.52924 -2.0941 1.21178 
2.33188 -1.43946 1.99483 -1.18266 2.52976 -2.0941 1.2119 
2.33163 -1.44014 1.99494 -1.18195 2.53028 -2.0941 1.21202 
2.33139 -1.44083 1.99505 -1.18125 2.53079 -2.0941 1.21215 
2.33115 -1.4415 1.99515 -1.18055 2.5313 -2.0941 1.21227 
2.33091 -1.44217 1.99526 -1.17986 2.53181 -2.0941 1.21239 
2.33067 -1.44283 1.99537 -1.17918 2.53231 -2.0941 1.21251 
2.33043 -1.44349 1.99547 -1.1785 2.5328 -2.0941 1.21262 
2.3302 -1.44414 1.99558 -1.17782 2.53329 -2.0941 1.21274 
2.32997 -1.44479 1.99569 -1.17715 2.53378 -2.0941 1.21286 
2.32974 -1.44543 1.99579 -1.17648 2.53426 -2.0941 1.21298 
2.32951 -1.44606 1.9959 -1.17582 2.53473 -2.0941 1.21309 
2.32928 -1.44669 1.99601 -1.17516 2.5352 -2.0941 1.21321 
2.32906 -1.44731 1.99611 -1.17451 2.53567 -2.0941 1.21332 
2.32883 -1.44793 1.99622 -1.17386 2.53613 -2.0941 1.21344 
2.32861 -1.44854 1.99632 -1.17322 2.53659 -2.0941 1.21355 
2.32839 -1.44915 1.99643 -1.17258 2.53704 -2.0941 1.21367 
2.32817 -1.44975 1.99653 -1.17195 2.53749 -2.0941 1.21378 
2.32796 -1.45034 1.99663 -1.17132 2.53793 -2.09439 1.21389 
2.32774 -1.45093 1.99674 -1.17069 2.53837 -2.09439 1.214 
2.32753 -1.45152 1.99684 -1.17007 2.53881 -2.09439 1.21411 
2.32731 -1.4521 1.99694 -1.16946 2.53924 -2.09439 1.21422 
2.3271 -1.45267 1.99705 -1.16884 2.53966 -2.09439 1.21433 
2.3269 -1.45324 1.99715 -1.16824 2.54009 -2.09439 1.21444 
2.32669 -1.45381 1.99725 -1.16763 2.5405 -2.09439 1.21455 
2.32648 -1.45437 1.99735 -1.16704 2.54092 -2.09439 1.21466 
2.32628 -1.45492 1.99746 -1.16644 2.54133 -2.09439 1.21477 
2.32608 -1.45547 1.99756 -1.16585 2.54173 -2.09439 1.21488 
2.32588 -1.45601 1.99766 -1.16527 2.54214 -2.09439 1.21499 
2.32568 -1.45655 1.99776 -1.16469 2.54253 -2.09439 1.21509 
2.32548 -1.45709 1.99786 -1.16411 2.54293 -2.09439 1.2152 
2.32528 -1.45761 1.99796 -1.16354 2.54332 -2.09439 1.21531 
2.32509 -1.45814 1.99806 -1.16297 2.5437 -2.09439 1.21541 
2.32489 -1.45866 1.99816 -1.1624 2.54409 -2.09439 1.21552 
2.3247 -1.45917 1.99826 -1.16184 2.54447 -2.09439 1.21562 
2.32451 -1.45968 1.99836 -1.16129 2.54484 -2.09439 1.21572 
2.32432 -1.46019 1.99846 -1.16074 2.54521 -2.09439 1.21583 
2.32414 -1.46069 1.99856 -1.16019 2.54558 -2.09439 1.21593 
2.32395 -1.46119 1.99866 -1.15965 2.54594 -2.09439 1.21603 
2.32376 -1.46168 1.99876 -1.15911 2.5463 -2.09439 1.21614 
2.32358 -1.46217 1.99886 -1.15857 2.54666 -2.09439 1.21624 
2.3234 -1.46265 1.99896 -1.15804 2.54701 -2.09439 1.21634 
2.32322 -1.46313 1.99906 -1.15751 2.54736 -2.09439 1.21644 
2.32304 -1.4636 1.99916 -1.15699 2.54771 -2.09439 1.21654 
2.32286 -1.46407 1.99926 -1.15647 2.54805 -2.09439 1.21664 
2.32269 -1.46454 1.99936 -1.15596 2.54839 -2.09439 1.21674 
2.32251 -1.465 1.99946 -1.15544 2.54872 -2.09439 1.21684 
2.32234 -1.46546 1.99956 -1.15494 2.54906 -2.09439 1.21694 
2.32217 -1.46591 1.99965 -1.15443 2.54939 -2.09439 1.21704 
2.322 -1.46636 1.99975 -1.15393 2.54971 -2.09439 1.21714 
2.32183 -1.4668 1.99985 -1.15344 2.55003 -2.09439 1.21724 
2.32166 -1.46724 1.99995 -1.15294 2.55035 -2.09439 1.21734 
2.32149 -1.46768 2.00005 -1.15246 2.55067 -2.09439 1.21744 
2.32133 -1.46811 2.00014 -1.15197 2.55098 -2.09439 1.21753 
2.32117 -1.46854 2.00024 -1.15149 2.55129 -2.09439 1.21763 
2.321 -1.46897 2.00034 -1.15101 2.5516 -2.09439 1.21773 
2.32084 -1.46939 2.00044 -1.15054 2.5519 -2.09439 1.21782 
2.32068 -1.4698 2.00053 -1.15007 2.5522 -2.09439 1.21792 
2.32052 -1.47022 2.00063 -1.1496 2.5525 -2.09439 1.21801 
2.32036 -1.47063 2.00073 -1.14914 2.55279 -2.09439 1.21811 
2.32021 -1.47103 2.00082 -1.14868 2.55308 -2.09439 1.2182 
2.32005 -1.47143 2.00092 -1.14822 2.55337 -2.09439 1.2183 
2.3199 -1.47183 2.00102 -1.14777 2.55366 -2.09439 1.21839 
2.31975 -1.47223 2.00111 -1.14732 2.55394 -2.09439 1.21849 
2.3196 -1.47262 2.00121 -1.14688 2.55422 -2.09439 1.21858 
2.31945 -1.473 2.00131 -1.14643 2.5545 -2.09439 1.21867 
2.3193 -1.47339 2.0014 -1.146 2.55477 -2.09439 1.21876 
2.31915 -1.47377 2.0015 -1.14556 2.55504 -2.09439 1.21886 
2.319 -1.47414 2.00159 -1.14513 2.55531 -2.09439 1.21895 
2.31886 -1.47452 2.00169 -1.1447 2.55558 -2.09439 1.21904 
2.31871 -1.47488 2.00178 -1.14428 2.55584 -2.09439 1.21913 
2.31857 -1.47525 2.00188 -1.14385 2.5561 -2.09439 1.21922 
2.31843 -1.47561 2.00197 -1.14344 2.55636 -2.09439 1.21931 
2.31829 -1.47597 2.00207 -1.14302 2.55661 -2.09439 1.2194 
2.31815 -1.47633 2.00216 -1.14261 2.55686 -2.09439 1.21949 
2.31801 -1.47668 2.00226 -1.1422 2.55711 -2.09439 1.21958 
2.31787 -1.47703 2.00235 -1.1418 2.55736 -2.09439 1.21967 
2.31773 -1.47737 2.00245 -1.14139 2.55761 -2.09439 1.21976 
2.3176 -1.47772 2.00254 -1.14099 2.55785 -2.09439 1.21985 
2.31746 -1.47806 2.00264 -1.1406 2.55809 -2.09439 1.21994 
2.31733 -1.47839 2.00273 -1.14021 2.55832 -2.09439 1.22003 
2.3172 -1.47873 2.00283 -1.13982 2.55856 -2.09439 1.22012 
2.31707 -1.47906 2.00292 -1.13943 2.55879 -2.09439 1.22021 
2.31694 -1.47938 2.00301 -1.13905 2.55902 -2.09439 1.22029 
2.31681 -1.47971 2.00311 -1.13866 2.55925 -2.09439 1.22038 
2.31668 -1.48003 2.0032 -1.13829 2.55947 -2.09439 1.22047 
2.31655 -1.48034 2.00329 -1.13791 2.5597 -2.09439 1.22055 
2.31643 -1.48066 2.00339 -1.13754 2.55992 -2.09439 1.22064 
2.3163 -1.48097 2.00348 -1.13717 2.56013 -2.09439 1.22073 
2.31618 -1.48128 2.00357 -1.13681 2.56035 -2.09439 1.22081 
2.31606 -1.48159 2.00367 -1.13644 2.56056 -2.09439 1.2209 
2.31594 -1.48189 2.00376 -1.13608 2.56077 -2.09439 1.22098 
2.31581 -1.48219 2.00385 -1.13573 2.56098 -2.09439 1.22107 
2.31569 -1.48249 2.00394 -1.13537 2.56119 -2.09439 1.22115 
2.31558 -1.48278 2.00404 -1.13502 2.5614 -2.09439 1.22124 
2.31546 -1.48307 2.00413 -1.13467 2.5616 -2.09439 1.22132 
2.31534 -1.48336 2.00422 -1.13433 2.5618 -2.09439 1.2214 
2.31522 -1.48365 2.00431 -1.13399 2.562 -2.09439 1.22149 
2.31511 -1.48393 2.00441 -1.13365 2.56219 -2.09439 1.22157 
2.315 -1.48421 2.0045 -1.13331 2.56239 -2.09439 1.22165 
2.31488 -1.48449 2.00459 -1.13297 2.56258 -2.09439 1.22174 
2.31477 -1.48476 2.00468 -1.13264 2.56277 -2.09439 1.22182 
2.31466 -1.48504 2.00477 -1.13231 2.56296 -2.09439 1.2219 
2.31455 -1.48531 2.00486 -1.13199 2.56314 -2.09439 1.22198 
2.31444 -1.48557 2.00496 -1.13166 2.56333 -2.09439 1.22206 
2.31433 -1.48584 2.00505 -1.13134 2.56351 -2.09439 1.22214 
2.31422 -1.4861 2.00514 -1.13102 2.56369 -2.09439 1.22223 
2.31411 -1.48636 2.00523 -1.13071 2.56387 -2.09439 1.22231 
2.31401 -1.48662 2.00532 -1.13039 2.56404 -2.09439 1.22239 
2.3139 -1.48687 2.00541 -1.13008 2.56422 -2.09439 1.22247 
2.3138 -1.48713 2.0055 -1.12977 2.56439 -2.09439 1.22255 
2.3137 -1.48738 2.00559 -1.12947 2.56456 -2.09439 1.22263 
2.31359 -1.48762 2.00568 -1.12916 2.56473 -2.09439 1.22271 
2.31349 -1.48787 2.00577 -1.12886 2.5649 -2.09439 1.22279 
2.31339 -1.48811 2.00586 -1.12856 2.56506 -2.09439 1.22286 
2.31329 -1.48835 2.00595 -1.12827 2.56523 -2.09439 1.22294 
2.31319 -1.48859 2.00604 -1.12797 2.56539 -2.09439 1.22302 
2.31309 -1.48883 2.00613 -1.12768 2.56555 -2.09439 1.2231 
2.31299 -1.48906 2.00622 -1.12739 2.56571 -2.09439 1.22318 
2.3129 -1.48929 2.00631 -1.12711 2.56586 -2.09439 1.22326 
2.3128 -1.48952 2.0064 -1.12682 2.56602 -2.09439 1.22333 
2.3127 -1.48975 2.00649 -1.12654 2.56617 -2.09439 1.22341 
2.31261 -1.48997 2.00658 -1.12626 2.56632 -2.09439 1.22349 
2.31252 -1.49019 2.00667 -1.12598 2.56647 -2.09439 1.22356 
2.31242 -1.49041 2.00675 -1.12571 2.56662 -2.09439 1.22364 
2.31233 -1.49063 2.00684 -1.12544 2.56677 -2.09439 1.22372 
2.31224 -1.49085 2.00693 -1.12517 2.56691 -2.09439 1.22379 
2.31215 -1.49106 2.00702 -1.1249 2.56706 -2.09439 1.22387 
2.31206 -1.49127 2.00711 -1.12463 2.5672 -2.09439 1.22394 
2.31197 -1.49148 2.0072 -1.12437 2.56734 -2.09439 1.22402 
2.31188 -1.49169 2.00728 -1.12411 2.56748 -2.09439 1.2241 
2.31179 -1.4919 2.00737 -1.12385 2.56761 -2.09439 1.22417 
2.31171 -1.4921 2.00746 -1.12359 2.56775 -2.09439 1.22424 
2.31162 -1.4923 2.00755 -1.12333 2.56788 -2.09439 1.22432 
2.31153 -1.4925 2.00763 -1.12308 2.56802 -2.09439 1.22439 
2.31145 -1.4927 2.00772 -1.12283 2.56815 -2.09439 1.22447 
2.31136 -1.49289 2.00781 -1.12258 2.56828 -2.09439 1.22454 
2.31128 -1.49309 2.0079 -1.12233 2.5684 -2.09439 1.22461 
2.3112 -1.49328 2.00798 -1.12209 2.56853 -2.09439 1.22469 
2.31111 -1.49347 2.00807 -1.12185 2.56866 -2.09439 1.22476 
2.31103 -1.49366 2.00816 -1.12161 2.56878 -2.09439 1.22483 
2.31095 -1.49384 2.00824 -1.12137 2.5689 -2.09439 1.22491 
2.31087 -1.49403 2.00833 -1.12113 2.56902 -2.09439 1.22498 
2.31079 -1.49421 2.00842 -1.1209 2.56914 -2.09439 1.22505 
2.31071 -1.49439 2.0085 -1.12066 2.56926 -2.09439 1.22512 
2.31063 -1.49457 2.00859 -1.12043 2.56938 -2.09439 1.22519 
2.31056 -1.49475 2.00867 -1.1202 2.56949 -2.09439 1.22526 
2.31048 -1.49492 2.00876 -1.11998 2.56961 -2.09439 1.22534 
2.3104 -1.4951 2.00884 -1.11975 2.56972 -2.09439 1.22541 
2.31033 -1.49527 2.00893 -1.11953 2.56983 -2.09439 1.22548 
2.31025 -1.49544 2.00902 -1.11931 2.56994 -2.09439 1.22555 
2.31018 -1.49561 2.0091 -1.11909 2.57005 -2.09439 1.22562 
2.3101 -1.49577 2.00919 -1.11887 2.57016 -2.09439 1.22569 
2.31003 -1.49594 2.00927 -1.11865 2.57027 -2.09439 1.22576 
2.30996 -1.4961 2.00936 -1.11844 2.57037 -2.09439 1.22583 
2.30988 -1.49626 2.00944 -1.11823 2.57048 -2.09439 1.2259 
2.30981 -1.49642 2.00952 -1.11802 2.57058 -2.09439 1.22597 
2.30974 -1.49658 2.00961 -1.11781 2.57068 -2.09439 1.22604 
2.30967 -1.49674 2.00969 -1.1176 2.57078 -2.09439 1.2261 
2.3096 -1.49689 2.00978 -1.1174 2.57088 -2.09439 1.22617 
2.30953 -1.49705 2.00986 -1.1172 2.57098 -2.09439 1.22624 
2.30946 -1.4972 2.00994 -1.11699 2.57108 -2.09439 1.22631 
2.3094 -1.49735 2.01003 -1.11679 2.57117 -2.09439 1.22638 
2.30933 -1.4975 2.01011 -1.1166 2.57127 -2.09439 1.22645 
2.30926 -1.49764 2.01019 -1.1164 2.57136 -2.09439 1.22651 
2.30919 -1.49779 2.01028 -1.1162 2.57145 -2.09439 1.22658 
2.30913 -1.49793 2.01036 -1.11601 2.57155 -2.09439 1.22665 
2.30906 -1.49808 2.01044 -1.11582 2.57164 -2.09439 1.22671 
2.309 -1.49822 2.01053 -1.11563 2.57172 -2.09439 1.22678 
2.30893 -1.49836 2.01061 -1.11544 2.57181 -2.09439 1.22685 
2.30887 -1.4985 2.01069 -1.11525 2.5719 -2.09439 1.22691 
2.30881 -1.49863 2.01077 -1.11507 2.57199 -2.09439 1.22698 
2.30874 -1.49877 2.01086 -1.11489 2.57207 -2.09439 1.22705 
2.30868 -1.4989 2.01094 -1.1147 2.57215 -2.09439 1.22711 
2.30862 -1.49904 2.01102 -1.11452 2.57224 -2.09439 1.22718 
2.30856 -1.49917 2.0111 -1.11434 2.57232 -2.09439 1.22724 
2.3085 -1.4993 2.01118 -1.11417 2.5724 -2.09439 1.22731 
2.30844 -1.49943 2.01126 -1.11399 2.57248 -2.09439 1.22737 
2.30838 -1.49955 2.01135 -1.11382 2.57256 -2.09439 1.22744 
2.30832 -1.49968 2.01143 -1.11364 2.57264 -2.09439 1.2275 
2.30826 -1.4998 2.01151 -1.11347 2.57271 -2.09439 1.22756 
2.3082 -1.49993 2.01159 -1.1133 2.57279 -2.09439 1.22763 
2.30814 -1.50005 2.01167 -1.11314 2.57287 -2.09439 1.22769 
2.30808 -1.50017 2.01175 -1.11297 2.57294 -2.09439 1.22776 
2.30803 -1.50029 2.01183 -1.1128 2.57301 -2.09439 1.22782 
2.30797 -1.50041 2.01191 -1.11264 2.57308 -2.09439 1.22788 
2.30792 -1.50053 2.01199 -1.11248 2.57316 -2.09439 1.22795 
2.30786 -1.50064 2.01207 -1.11231 2.57323 -2.09439 1.22801 
2.3078 -1.50076 2.01215 -1.11216 2.5733 -2.09439 1.22807 
2.30775 -1.50087 2.01223 -1.112 2.57336 -2.09439 1.22813 
2.3077 -1.50098 2.01231 -1.11184 2.57343 -2.09439 1.2282 
2.30764 -1.50109 2.01239 -1.11168 2.5735 -2.09439 1.22826 
2.30759 -1.5012 2.01247 -1.11153 2.57357 -2.09439 1.22832 
2.30754 -1.50131 2.01255 -1.11138 2.57363 -2.09439 1.22838 
2.30748 -1.50142 2.01263 -1.11122 2.57369 -2.09439 1.22844 
2.30743 -1.50152 2.0127 -1.11107 2.57376 -2.09439 1.2285 
2.30738 -1.50163 2.01278 -1.11092 2.57382 -2.09439 1.22857 
2.30733 -1.50173 2.01286 -1.11078 2.57388 -2.09439 1.22863 
2.30728 -1.50183 2.01294 -1.11063 2.57394 -2.09439 1.22869 
2.30723 -1.50194 2.01302 -1.11049 2.574 -2.09439 1.22875 
2.30718 -1.50204 2.0131 -1.11034 2.57406 -2.09439 1.22881 
2.30713 -1.50214 2.01317 -1.1102 2.57412 -2.09439 1.22887 
2.30708 -1.50223 2.01325 -1.11006 2.57418 -2.09439 1.22893 
2.30703 -1.50233 2.01333 -1.10992 2.57424 -2.09439 1.22899 
2.30698 -1.50243 2.01341 -1.10978 2.57429 -2.09439 1.22905 
2.30693 -1.50252 2.01348 -1.10964 2.57435 -2.09439 1.22911 
2.30688 -1.50262 2.01356 -1.1095 2.5744 -2.09439 1.22917 
2.30684 -1.50271 2.01364 -1.10937 2.57446 -2.09439 1.22923 
2.30679 -1.5028 2.01371 -1.10923 2.57451 -2.09439 1.22928 
2.30674 -1.50289 2.01379 -1.1091 2.57456 -2.09439 1.22934 
2.3067 -1.50298 2.01387 -1.10897 2.57461 -2.09439 1.2294 
2.30665 -1.50307 2.01394 -1.10884 2.57466 -2.09439 1.22946 
2.30661 -1.50316 2.01402 -1.10871 2.57472 -2.09439 1.22952 
2.30656 -1.50325 2.01409 -1.10858 2.57476 -2.09439 1.22958 
2.30652 -1.50333 2.01417 -1.10845 2.57481 -2.09439 1.22963 
2.30647 -1.50342 2.01425 -1.10833 2.57486 -2.09439 1.22969 
2.30643 -1.5035 2.01432 -1.1082 2.57491 -2.09439 1.22975 
2.30639 -1.50359 2.0144 -1.10808 2.57496 -2.09439 1.22981 
2.30634 -1.50367 2.01447 -1.10795 2.575 -2.09439 1.22986 
2.3063 -1.50375 2.01455 -1.10783 2.57505 -2.09439 1.22992 
2.30626 -1.50383 2.01462 -1.10771 2.57509 -2.09439 1.22998 
2.30621 -1.50391 2.0147 -1.10759 2.57514 -2.09439 1.23003 
2.30617 -1.50399 2.01477 -1.10747 2.57518 -2.09439 1.23009 
2.30613 -1.50407 2.01484 -1.10735 2.57522 -2.09439 1.23015 
2.30609 -1.50414 2.01492 -1.10724 2.57527 -2.09439 1.2302 
2.30605 -1.50422 2.01499 -1.10712 2.57531 -2.09439 1.23026 
2.30601 -1.50429 2.01507 -1.10701 2.57535 -2.09439 1.23031 
2.30597 -1.50437 2.01514 -1.10689 2.57539 -2.09439 1.23037 
2.30593 -1.50444 2.01521 -1.10678 2.57543 -2.09439 1.23042 
2.30589 -1.50451 2.01529 -1.10667 2.57547 -2.09439 1.23048 
2.30585 -1.50459 2.01536 -1.10656 2.57551 -2.09439 1.23053 
2.30581 -1.50466 2.01543 -1.10645 2.57554 -2.09439 1.23059 
2.30577 -1.50473 2.01551 -1.10634 2.57558 -2.09439 1.23064 
2.30573 -1.5048 2.01558 -1.10623 2.57562 -2.09439 1.2307 
2.30569 -1.50486 2.01565 -1.10613 2.57566 -2.09439 1.23075 
2.30566 -1.50493 2.01572 -1.10602 2.57569 -2.09439 1.23081 
2.30562 -1.505 2.0158 -1.10592 2.57573 -2.09439 1.23086 
2.30558 -1.50506 2.01587 -1.10581 2.57576 -2.09439 1.23091 
2.30555 -1.50513 2.01594 -1.10571 2.57579 -2.09439 1.23097 
2.30551 -1.50519 2.01601 -1.10561 2.57583 -2.09439 1.23102 
2.30547 -1.50526 2.01608 -1.10551 2.57586 -2.09439 1.23107 
2.30544 -1.50532 2.01616 -1.10541 2.57589 -2.09439 1.23113 
2.3054 -1.50538 2.01623 -1.10531 2.57592 -2.09439 1.23118 
2.30537 -1.50544 2.0163 -1.10521 2.57596 -2.09439 1.23123 
2.30533 -1.5055 2.01637 -1.10511 2.57599 -2.09439 1.23128 
2.30529 -1.50556 2.01644 -1.10501 2.57602 -2.09439 1.23134 
2.30526 -1.50562 2.01651 -1.10492 2.57605 -2.09439 1.23139 
2.30523 -1.50568 2.01658 -1.10482 2.57608 -2.09439 1.23144 
2.30519 -1.50574 2.01665 -1.10473 2.57611 -2.09439 1.23149 
2.30516 -1.5058 2.01672 -1.10464 2.57613 -2.09439 1.23154 
2.30512 -1.50585 2.01679 -1.10454 2.57616 -2.09439 1.2316 
2.30509 -1.50591 2.01686 -1.10445 2.57619 -2.09439 1.23165 
2.30506 -1.50596 2.01693 -1.10436 2.57622 -2.09439 1.2317 
2.30503 -1.50602 2.017 -1.10427 2.57624 -2.09439 1.23175 
2.30499 -1.50607 2.01707 -1.10418 2.57627 -2.09439 1.2318 
2.30496 -1.50612 2.01714 -1.10409 2.57629 -2.09439 1.23185 
2.30493 -1.50618 2.01721 -1.10401 2.57632 -2.09439 1.2319 
2.3049 -1.50623 2.01728 -1.10392 2.57634 -2.09439 1.23195 
2.30487 -1.50628 2.01735 -1.10383 2.57637 -2.09439 1.232 
2.30483 -1.50633 2.01741 -1.10375 2.57639 -2.09439 1.23205 
2.3048 -1.50638 2.01748 -1.10366 2.57641 -2.09439 1.2321 
2.30477 -1.50643 2.01755 -1.10358 2.57644 -2.09439 1.23215 
2.30474 -1.50648 2.01762 -1.1035 2.57646 -2.09439 1.2322 
2.30471 -1.50652 2.01769 -1.10341 2.57648 -2.09439 1.23225 
2.30468 -1.50657 2.01776 -1.10333 2.5765 -2.09439 1.2323 
2.30465 -1.50662 2.01782 -1.10325 2.57652 -2.09439 1.23235 
2.30462 -1.50666 2.01789 -1.10317 2.57654 -2.09439 1.2324 
2.30459 -1.50671 2.01796 -1.10309 2.57656 -2.09439 1.23245 
2.30456 -1.50675 2.01803 -1.10301 2.57658 -2.09439 1.2325 
2.30453 -1.5068 2.01809 -1.10294 2.5766 -2.09439 1.23255 
2.30451 -1.50684 2.01816 -1.10286 2.57662 -2.09439 1.23259 
2.30448 -1.50688 2.01823 -1.10278 2.57664 -2.09439 1.23264 
2.30445 -1.50693 2.01829 -1.10271 2.57666 -2.09439 1.23269 
2.30442 -1.50697 2.01836 -1.10263 2.57668 -2.09439 1.23274 
2.30439 -1.50701 2.01842 -1.10256 2.57669 -2.09439 1.23279 
2.30437 -1.50705 2.01849 -1.10248 2.57671 -2.09439 1.23283 
2.30434 -1.50709 2.01856 -1.10241 2.57673 -2.09439 1.23288 
2.30431 -1.50713 2.01862 -1.10234 2.57674 -2.09439 1.23293 
2.30428 -1.50717 2.01869 -1.10227 2.57676 -2.09439 1.23298 
2.30426 -1.50721 2.01875 -1.1022 2.57677 -2.09439 1.23302 
2.30423 -1.50725 2.01882 -1.10213 2.57679 -2.09439 1.23307 
2.3042 -1.50728 2.01888 -1.10206 2.5768 -2.09439 1.23312 
2.30418 -1.50732 2.01895 -1.10199 2.57682 -2.09439 1.23316 
2.30415 -1.50736 2.01901 -1.10192 2.57683 -2.09439 1.23321 
2.30413 -1.50739 2.01908 -1.10185 2.57685 -2.09439 1.23326 
2.3041 -1.50743 2.01914 -1.10178 2.57686 -2.09439 1.2333 
2.30407 -1.50747 2.01921 -1.10172 2.57687 -2.09439 1.23335 
2.30405 -1.5075 2.01927 -1.10165 2.57688 -2.09439 1.23339 
2.30402 -1.50753 2.01934 -1.10159 2.5769 -2.09439 1.23344 
2.304 -1.50757 2.0194 -1.10152 2.57691 -2.09439 1.23348 
2.30397 -1.5076 2.01946 -1.10146 2.57692 -2.09439 1.23353 
2.30395 -1.50763 2.01953 -1.10139 2.57693 -2.09439 1.23358 
2.30393 -1.50767 2.01959 -1.10133 2.57694 -2.09439 1.23362 
2.3039 -1.5077 2.01965 -1.10127 2.57695 -2.09439 1.23367 
2.30388 -1.50773 2.01972 -1.10121 2.57696 -2.09439 1.23371 
2.30385 -1.50776 2.01978 -1.10114 2.57697 -2.09439 1.23376 
2.30383 -1.50779 2.01984 -1.10108 2.57698 -2.09439 1.2338 
2.30381 -1.50782 2.0199 -1.10102 2.57699 -2.09439 1.23384 
2.30378 -1.50785 2.01997 -1.10096 2.577 -2.09439 1.23389 
2.30376 -1.50788 2.02003 -1.1009 2.57701 -2.09439 1.23393 
2.30374 -1.50791 2.02009 -1.10085 2.57702 -2.09439 1.23398 
2.30372 -1.50793 2.02015 -1.10079 2.57703 -2.09439 1.23402 
2.30369 -1.50796 2.02021 -1.10073 2.57704 -2.09439 1.23406 
2.30367 -1.50799 2.02028 -1.10067 2.57704 -2.09439 1.23411 
2.30365 -1.50802 2.02034 -1.10062 2.57705 -2.09439 1.23415 
2.30363 -1.50804 2.0204 -1.10056 2.57706 -2.09439 1.23419 
2.3036 -1.50807 2.02046 -1.10051 2.57707 -2.09439 1.23424 
2.30358 -1.50809 2.02052 -1.10045 2.57707 -2.09439 1.23428 
2.30356 -1.50812 2.02058 -1.1004 2.57708 -2.09439 1.23432 
2.30354 -1.50814 2.02064 -1.10034 2.57709 -2.09439 1.23437 
2.30352 -1.50817 2.0207 -1.10029 2.57709 -2.09439 1.23441 
2.3035 -1.50819 2.02076 -1.10024 2.5771 -2.09439 1.23445 
2.30348 -1.50822 2.02082 -1.10018 2.5771 -2.09439 1.23449 
2.30346 -1.50824 2.02088 -1.10013 2.57711 -2.09439 1.23453 
2.30343 -1.50826 2.02094 -1.10008 2.57711 -2.09439 1.23458 
2.30341 -1.50829 2.021 -1.10003 2.57712 -2.09439 1.23462 
2.30339 -1.50831 2.02106 -1.09998 2.57712 -2.09439 1.23466 
2.30337 -1.50833 2.02112 -1.09993 2.57713 -2.09439 1.2347 
2.30335 -1.50835 2.02118 -1.09988 2.57713 -2.09439 1.23474 
2.30333 -1.50837 2.02124 -1.09983 2.57713 -2.09439 1.23479 
2.30331 -1.50839 2.0213 -1.09978 2.57714 -2.09439 1.23483 
2.30329 -1.50841 2.02136 -1.09973 2.57714 -2.09439 1.23487 
2.30327 -1.50843 2.02142 -1.09969 2.57714 -2.09439 1.23491 
2.30326 -1.50845 2.02148 -1.09964 2.57714 -2.09439 1.23495 
2.30324 -1.50847 2.02153 -1.09959 2.57715 -2.09439 1.23499 
2.30322 -1.50849 2.02159 -1.09955 2.57715 -2.09439 1.23503 
2.3032 -1.50851 2.02165 -1.0995 2.57715 -2.09439 1.23507 
2.30318 -1.50853 2.02171 -1.09946 2.57715 -2.09439 1.23511 
2.30316 -1.50855 2.02177 -1.09941 2.57715 -2.09439 1.23515 
2.30314 -1.50856 2.02182 -1.09937 2.57716 -2.09439 1.23519 
2.30312 -1.50858 2.02188 -1.09932 2.57716 -2.09439 1.23523 
2.30311 -1.5086 2.02194 -1.09928 2.57716 -2.09439 1.23527 
2.30309 -1.50862 2.022 -1.09923 2.57716 -2.09439 1.23531 
2.30307 -1.50863 2.02205 -1.09919 2.57716 -2.09439 1.23535 
2.30305 -1.50865 2.02211 -1.09915 2.57716 -2.09439 1.23539 
2.30303 -1.50866 2.02217 -1.09911 2.57716 -2.09439 1.23543 
2.30302 -1.50868 2.02222 -1.09906 2.57716 -2.09439 1.23547 
2.303 -1.50869 2.02228 -1.09902 2.57716 -2.09439 1.23551 
2.30298 -1.50871 2.02234 -1.09898 2.57716 -2.09439 1.23555 
2.30296 -1.50872 2.02239 -1.09894 2.57716 -2.09439 1.23558 
2.30295 -1.50874 2.02245 -1.0989 2.57716 -2.09439 1.23562 
2.30293 -1.50875 2.0225 -1.09886 2.57716 -2.09439 1.23566 
2.30291 -1.50877 2.02256 -1.09882 2.57716 -2.09439 1.2357 
2.3029 -1.50878 2.02261 -1.09878 2.57715 -2.09439 1.23574 
2.30288 -1.50879 2.02267 -1.09874 2.57715 -2.09439 1.23578 
2.30286 -1.5088 2.02272 -1.09871 2.57715 -2.09439 1.23581 
2.30285 -1.50882 2.02278 -1.09867 2.57715 -2.09439 1.23585 
2.30283 -1.50883 2.02283 -1.09863 2.57715 -2.09439 1.23589 
2.30281 -1.50884 2.02289 -1.09859 2.57714 -2.09439 1.23593 
2.3028 -1.50885 2.02294 -1.09856 2.57714 -2.09439 1.23596 
2.30278 -1.50886 2.023 -1.09852 2.57714 -2.09439 1.236 
2.30277 -1.50888 2.02305 -1.09848 2.57714 -2.09439 1.23604 
2.30275 -1.50889 2.02311 -1.09845 2.57713 -2.09439 1.23608 
2.30273 -1.5089 2.02316 -1.09841 2.57713 -2.09439 1.23611 
2.30272 -1.50891 2.02321 -1.09838 2.57713 -2.09439 1.23615 
2.3027 -1.50892 2.02327 -1.09834 2.57712 -2.09439 1.23619 
2.30269 -1.50893 2.02332 -1.09831 2.57712 -2.09439 1.23622 
2.30267 -1.50894 2.02338 -1.09827 2.57712 -2.09439 1.23626 
2.30266 -1.50895 2.02343 -1.09824 2.57711 -2.09439 1.2363 
2.30264 -1.50896 2.02348 -1.09821 2.57711 -2.09439 1.23633 
2.30263 -1.50897 2.02353 -1.09817 2.5771 -2.09439 1.23637 
2.30261 -1.50898 2.02359 -1.09814 2.5771 -2.09439 1.23641 
2.3026 -1.50898 2.02364 -1.09811 2.5771 -2.09439 1.23644 
2.30258 -1.50899 2.02369 -1.09808 2.57709 -2.09439 1.23648 
2.30257 -1.509 2.02374 -1.09804 2.57709 -2.09439 1.23651 
2.30255 -1.50901 2.0238 -1.09801 2.57708 -2.09439 1.23655 
2.30254 -1.50902 2.02385 -1.09798 2.57708 -2.09439 1.23658 
2.30253 -1.50902 2.0239 -1.09795 2.57707 -2.09439 1.23662 
2.30251 -1.50903 2.02395 -1.09792 2.57707 -2.09439 1.23665 
2.3025 -1.50904 2.024 -1.09789 2.57706 -2.09439 1.23669 
2.30248 -1.50904 2.02406 -1.09786 2.57705 -2.09439 1.23672 
2.30247 -1.50905 2.02411 -1.09783 2.57705 -2.09439 1.23676 
2.30246 -1.50906 2.02416 -1.0978 2.57704 -2.09439 1.23679 
2.30244 -1.50906 2.02421 -1.09777 2.57704 -2.09439 1.23683 
2.30243 -1.50907 2.02426 -1.09774 2.57703 -2.09439 1.23686 
2.30242 -1.50907 2.02431 -1.09771 2.57702 -2.09439 1.2369 
2.3024 -1.50908 2.02436 -1.09769 2.57702 -2.09439 1.23693 
2.30239 -1.50909 2.02441 -1.09766 2.57701 -2.09439 1.23697 
2.30238 -1.50909 2.02446 -1.09763 2.57701 -2.09439 1.237 
2.30236 -1.5091 2.02451 -1.0976 2.577 -2.09439 1.23703 
2.30235 -1.5091 2.02456 -1.09758 2.57699 -2.09439 1.23707 
2.30234 -1.50911 2.02461 -1.09755 2.57699 -2.09439 1.2371 
2.30232 -1.50911 2.02466 -1.09752 2.57698 -2.09439 1.23714 
2.30231 -1.50911 2.02471 -1.0975 2.57697 -2.09439 1.23717 
2.3023 -1.50912 2.02476 -1.09747 2.57696 -2.09439 1.2372 
2.30228 -1.50912 2.02481 -1.09744 2.57696 -2.09439 1.23724 
2.30227 -1.50913 2.02486 -1.09742 2.57695 -2.09439 1.23727 
2.30226 -1.50913 2.02491 -1.09739 2.57694 -2.09439 1.2373 
2.30225 -1.50913 2.02496 -1.09737 2.57693 -2.09439 1.23734 
2.30223 -1.50914 2.02501 -1.09734 2.57693 -2.09439 1.23737 
2.30222 -1.50914 2.02506 -1.09732 2.57692 -2.09439 1.2374 
2.30221 -1.50914 2.02511 -1.09729 2.57691 -2.09439 1.23743 
2.3022 -1.50914 2.02515 -1.09727 2.5769 -2.09439 1.23747 
2.30219 -1.50915 2.0252 -1.09724 2.57689 -2.09439 1.2375 
2.30217 -1.50915 2.02525 -1.09722 2.57689 -2.09439 1.23753 
2.30216 -1.50915 2.0253 -1.0972 2.57688 -2.09439 1.23756 
2.30215 -1.50915 2.02535 -1.09717 2.57687 -2.09439 1.2376 
2.30214 -1.50915 2.02539 -1.09715 2.57686 -2.09439 1.23763 
2.30213 -1.50916 2.02544 -1.09713 2.57685 -2.09439 1.23766 
2.30212 -1.50916 2.02549 -1.09711 2.57684 -2.09439 1.23769 
2.3021 -1.50916 2.02554 -1.09708 2.57683 -2.09439 1.23772 
2.30209 -1.50916 2.02558 -1.09706 2.57682 -2.09439 1.23775 
2.30208 -1.50916 2.02563 -1.09704 2.57682 -2.09439 1.23779 
2.30207 -1.50916 2.02568 -1.09702 2.57681 -2.09439 1.23782 
2.30206 -1.50916 2.02572 -1.097 2.5768 -2.09439 1.23785 
2.30205 -1.50916 2.02577 -1.09698 2.57679 -2.09439 1.23788 
2.30204 -1.50916 2.02582 -1.09695 2.57678 -2.09439 1.23791 
2.30203 -1.50916 2.02586 -1.09693 2.57677 -2.09439 1.23794 
2.30201 -1.50916 2.02591 -1.09691 2.57676 -2.09439 1.23797 
2.302 -1.50916 2.02596 -1.09689 2.57675 -2.09439 1.238 
2.30199 -1.50916 2.026 -1.09687 2.57674 -2.09439 1.23803 
2.30198 -1.50916 2.02605 -1.09685 2.57673 -2.09439 1.23806 
2.30197 -1.50916 2.02609 -1.09683 2.57672 -2.09439 1.2381 
2.30196 -1.50916 2.02614 -1.09681 2.57671 -2.09439 1.23813 
2.30195 -1.50916 2.02618 -1.09679 2.5767 -2.09439 1.23816 
2.30194 -1.50916 2.02623 -1.09677 2.57669 -2.09439 1.23819 
2.30193 -1.50916 2.02628 -1.09676 2.57668 -2.09439 1.23822 
2.30192 -1.50916 2.02632 -1.09674 2.57667 -2.09439 1.23825 
2.30191 -1.50916 2.02637 -1.09672 2.57666 -2.09439 1.23828 
2.3019 -1.50916 2.02641 -1.0967 2.57665 -2.09439 1.23831 
2.30189 -1.50916 2.02646 -1.09668 2.57664 -2.09439 1.23834 
2.30188 -1.50915 2.0265 -1.09666 2.57663 -2.09439 1.23836 
2.30187 -1.50915 2.02654 -1.09665 2.57662 -2.09439 1.23839 
2.30186 -1.50915 2.02659 -1.09663 2.57661 -2.09439 1.23842 
2.30185 -1.50915 2.02663 -1.09661 2.5766 -2.09439 1.23845 
2.30184 -1.50915 2.02668 -1.09659 2.57659 -2.09439 1.23848 
2.30183 -1.50914 2.02672 -1.09658 2.57658 -2.09439 1.23851 
2.30182 -1.50914 2.02676 -1.09656 2.57657 -2.09439 1.23854 
2.30181 -1.50914 2.02681 -1.09654 2.57656 -2.09439 1.23857 
2.3018 -1.50914 2.02685 -1.09653 2.57654 -2.09439 1.2386 
2.30179 -1.50914 2.02689 -1.09651 2.57653 -2.09439 1.23863 
2.30178 -1.50913 2.02694 -1.09649 2.57652 -2.09439 1.23866 
2.30177 -1.50913 2.02698 -1.09648 2.57651 -2.09439 1.23868 
2.30176 -1.50913 2.02702 -1.09646 2.5765 -2.09439 1.23871 
2.30175 -1.50912 2.02707 -1.09645 2.57649 -2.09439 1.23874 
2.30174 -1.50912 2.02711 -1.09643 2.57648 -2.09439 1.23877 
2.30173 -1.50912 2.02715 -1.09641 2.57647 -2.09439 1.2388 
2.30172 -1.50911 2.02719 -1.0964 2.57645 -2.09439 1.23883 
2.30172 -1.50911 2.02724 -1.09638 2.57644 -2.09439 1.23885 
2.30171 -1.50911 2.02728 -1.09637 2.57643 -2.09439 1.23888 
2.3017 -1.5091 2.02732 -1.09635 2.57642 -2.09439 1.23891 
2.30169 -1.5091 2.02736 -1.09634 2.57641 -2.09439 1.23894 
2.30168 -1.5091 2.02741 -1.09633 2.5764 -2.09439 1.23896 
2.30167 -1.50909 2.02745 -1.09631 2.57639 -2.09439 1.23899 
2.30166 -1.50909 2.02749 -1.0963 2.57637 -2.09439 1.23902 
2.30165 -1.50909 2.02753 -1.09628 2.57636 -2.09439 1.23905 
2.30164 -1.50908 2.02757 -1.09627 2.57635 -2.09439 1.23907 
2.30164 -1.50908 2.02761 -1.09626 2.57634 -2.09439 1.2391 
2.30163 -1.50907 2.02765 -1.09624 2.57633 -2.09439 1.23913 
2.30162 -1.50907 2.0277 -1.09623 2.57632 -2.09439 1.23915 
2.30161 -1.50906 2.02774 -1.09621 2.5763 -2.09439 1.23918 
2.3016 -1.50906 2.02778 -1.0962 2.57629 -2.09439 1.23921 
2.30159 -1.50905 2.02782 -1.09619 2.57628 -2.09439 1.23923 
2.30158 -1.50905 2.02786 -1.09618 2.57627 -2.09439 1.23926 
2.30158 -1.50905 2.0279 -1.09616 2.57626 -2.09439 1.23929 
2.30157 -1.50904 2.02794 -1.09615 2.57624 -2.09439 1.23931 
2.30156 -1.50904 2.02798 -1.09614 2.57623 -2.09439 1.23934 
2.30155 -1.50903 2.02802 -1.09613 2.57622 -2.09439 1.23937 
2.30154 -1.50903 2.02806 -1.09611 2.57621 -2.09439 1.23939 
2.30153 -1.50902 2.0281 -1.0961 2.57619 -2.09439 1.23942 
2.30153 -1.50901 2.02814 -1.09609 2.57618 -2.09439 1.23945 
2.30152 -1.50901 2.02818 -1.09608 2.57617 -2.09439 1.23947 
2.30151 -1.509 2.02822 -1.09607 2.57616 -2.09439 1.2395 
2.3015 -1.509 2.02826 -1.09605 2.57615 -2.09439 1.23952 
2.30149 -1.50899 2.0283 -1.09604 2.57613 -2.09439 1.23955 
2.30149 -1.50899 2.02834 -1.09603 2.57612 -2.09439 1.23957 
2.30148 -1.50898 2.02837 -1.09602 2.57611 -2.09439 1.2396 
2.30147 -1.50898 2.02841 -1.09601 2.5761 -2.09439 1.23962 
2.30146 -1.50897 2.02845 -1.096 2.57608 -2.09439 1.23965 
2.30146 -1.50896 2.02849 -1.09599 2.57607 -2.09439 1.23968 
2.30145 -1.50896 2.02853 -1.09598 2.57606 -2.09439 1.2397 
2.30144 -1.50895 2.02857 -1.09597 2.57605 -2.09439 1.23973 
2.30143 -1.50895 2.02861 -1.09596 2.57603 -2.09439 1.23975 
2.30143 -1.50894 2.02864 -1.09595 2.57602 -2.09439 1.23978 
2.30142 -1.50893 2.02868 -1.09594 2.57601 -2.09439 1.2398 
2.30141 -1.50893 2.02872 -1.09593 2.57599 -2.09439 1.23982 
2.3014 -1.50892 2.02876 -1.09592 2.57598 -2.09439 1.23985 
